; generated by PrusaSlicer 2.7.4+win64 on 2024-05-11 at 19:54:50 UTC

; 

; external perimeters extrusion width = 0.42mm
; perimeters extrusion width = 0.44mm
; infill extrusion width = 0.44mm
; solid infill extrusion width = 0.44mm
; top infill extrusion width = 0.40mm
; support material extrusion width = 0.36mm
; first layer extrusion width = 0.42mm

M201 X500 Y500 Z100 E5000 ; sets maximum accelerations, mm/sec^2
M203 X500 Y500 Z10 E60 ; sets maximum feedrates, mm / sec
M204 S500 T1000 ; sets acceleration (S) and retract acceleration (R), mm/sec^2
M205 X8.00 Y8.00 Z0.40 E5.00 ; sets the jerk limits, mm/sec
M205 S0 T0 ; sets the minimum extruding and travel feed rate, mm/sec

; printing object podst.stl id:2 copy 0
; stop printing object podst.stl id:2 copy 0

;TYPE:Custom
G90 ; use absolute coordinates
M83 ; extruder relative mode
M104 S150 ; set temporary nozzle temp to prevent oozing during homing
M140 S60 ; set final bed temp
G4 S30 ; allow partial nozzle warmup
G28 ; home all axis
G29
G1 Z50 F240
G1 X2.0 Y10 F3000
M104 S210 ; set final nozzle temp
M190 S60 ; wait for bed temp to stabilize
M109 S210 ; wait for nozzle temp to stabilize
G1 Z0.28 F240
G92 E0
G1 X2.0 Y140 E10 F1500 ; prime the nozzle
G1 X2.3 Y140 F5000
G92 E0
G1 X2.3 Y10 E10 F1200 ; prime the nozzle
G92 E0
G21 ; set units to millimeters
G90 ; use absolute coordinates
M83 ; use relative distances for extrusion
; Filament gcode
M107
;LAYER_CHANGE
;Z:0.2
;HEIGHT:0.2
G1 E-5 F3600
G1 Z.2 F9000
G1 X87.332 Y71.809
G1 Z.2
G1 E5 F2400
M204 S500
;TYPE:Skirt/Brim
;WIDTH:0.42
G1 F1200
G1 X87.853 Y71.288 E.0231
G1 X89.017 Y70.484 E.04436
G1 X89.839 Y70.146 E.02787
G1 X90.859 Y69.906 E.03285
G1 X116.034 Y67.477 E.79301
G1 X126.726 Y67.481 E.33524
G1 X148.885 Y69.884 E.69885
G1 X150.205 Y70.132 E.04211
G1 X151.201 Y70.474 E.03302
G1 X151.784 Y70.785 E.02072
G1 X153.241 Y71.835 E.05631
G1 X153.942 Y72.628 E.03319
G1 X154.573 Y73.573 E.03563
G1 X155.036 Y74.521 E.03308
G1 X155.431 Y76.181 E.0535
G1 X155.515 Y77.034 E.02687
G1 X155.515 Y155.21 E2.45115
G1 X155.431 Y156.065 E.02694
G1 X155.035 Y157.722 E.05342
G1 X154.573 Y158.669 E.03304
G1 X153.942 Y159.614 E.03563
G1 X153.241 Y160.407 E.03319
G1 X151.785 Y161.456 E.05627
G1 X151.206 Y161.766 E.02059
G1 X150.217 Y162.107 E.0328
G1 X148.889 Y162.36 E.04239
G1 X126.726 Y164.763 E.69898
G1 X116.034 Y164.767 E.33524
G1 X91.223 Y162.384 E.78151
G1 X89.807 Y162.085 E.04538
G1 X88.559 Y161.494 E.0433
G1 X87.87 Y160.969 E.02716
G1 X87.35 Y160.455 E.02293
G1 X86.533 Y159.281 E.04485
G1 X86.194 Y158.464 E.02773
G1 X84.009 Y150.316 E.2645
G1 X83.894 Y149.441 E.02767
G1 X83.894 Y81.485 E2.13071
G1 X84.054 Y80.456 E.03265
G1 X86.239 Y73.628 E.22478
G1 X86.792 Y72.514 E.039
G1 X87.295 Y71.857 E.02594
G1 E-3.5 F3600
;WIPE_START
G1 F7200
G1 X87.332 Y71.809 E-.02879
G1 X87.853 Y71.288 E-.34998
G1 X89.017 Y70.484 E-.67197
G1 X89.839 Y70.146 E-.42217
G1 X89.894 Y70.133 E-.02709
;WIPE_END
G1 X89.976 Y74.388 F9000
G1 E5 F2400
G1 F1200
G1 X90.459 Y73.91 E.02131
G1 X90.955 Y73.657 E.01746
G1 X91.589 Y73.525 E.0203
G1 X117.655 Y73.529 E.81728
G1 X118.318 Y73.808 E.02255
G1 X118.745 Y74.236 E.01896
G1 X118.984 Y74.705 E.0165
G1 X119.017 Y77.39 E.08419
G1 X118.758 Y77.989 E.02046
G1 X118.271 Y78.469 E.02144
G1 X117.896 Y78.659 E.01318
G1 X116.261 Y78.719 E.0513
G1 X116.262 Y108.925 E.94709
G1 X126.069 Y108.919 E.30749
G1 X126.069 Y78.719 E.9469
G1 X124.483 Y78.674 E.04975
G1 X124.014 Y78.436 E.01649
G1 X123.444 Y77.78 E.02725
G1 X123.303 Y77.324 E.01497
G1 X123.303 Y74.921 E.07534
G1 X123.488 Y74.376 E.01805
G1 X124.002 Y73.82 E.02374
G1 X124.698 Y73.525 E.0237
G1 X148.301 Y73.525 E.74006
G1 X149.55 Y73.773 E.03993
G1 X150.598 Y74.418 E.03858
G1 X150.939 Y74.758 E.0151
G1 X151.586 Y75.809 E.0387
G1 X151.835 Y77.059 E.03996
G1 X151.835 Y155.185 E2.44959
G1 X151.586 Y156.433 E.0399
G1 X150.939 Y157.483 E.03867
G1 X150.598 Y157.824 E.01512
G1 X149.553 Y158.468 E.03849
G1 X148.302 Y158.719 E.04001
G1 X124.698 Y158.719 E.74009
G1 X124.064 Y158.473 E.02132
G1 X123.488 Y157.868 E.02619
G1 X123.303 Y157.323 E.01805
G1 X123.303 Y154.921 E.07531
G1 X123.488 Y154.376 E.01805
G1 X124.032 Y153.795 E.02496
G1 X124.632 Y153.536 E.02049
G1 X126.069 Y153.526 E.04506
G1 X126.067 Y123.317 E.94718
G1 X116.261 Y123.323 E.30746
G1 X116.261 Y153.525 E.94696
G1 X117.849 Y153.569 E.04981
G1 X118.318 Y153.808 E.0165
G1 X118.888 Y154.464 E.02725
G1 X119.028 Y154.92 E.01496
G1 X119.028 Y157.323 E.07534
G1 X118.843 Y157.868 E.01805
G1 X118.329 Y158.424 E.02374
G1 X117.634 Y158.719 E.02367
G1 X91.587 Y158.719 E.81669
G1 X90.947 Y158.583 E.02051
G1 X90.46 Y158.333 E.01716
G1 X90.013 Y157.904 E.01943
G1 X89.721 Y157.392 E.01848
G1 X89.569 Y156.697 E.02231
G1 X89.569 Y75.545 E2.54446
G1 X89.703 Y74.902 E.02059
G1 X89.948 Y74.441 E.01637
G1 X89.948 Y74.441 F9000
G1 X90.278 Y74.621
G1 F1200
G1 X90.292 Y74.596 E.0009
G1 X90.699 Y74.202 E.01776
G1 X91.058 Y74.02 E.01262
G1 X91.61 Y73.902 E.0177
G1 X117.633 Y73.906 E.81593
G1 X118.073 Y74.097 E.01504
G1 X118.455 Y74.479 E.01694
G1 X118.651 Y74.951 E.01602
G1 X118.64 Y77.354 E.07535
G1 X118.54 Y77.635 E.00935
G1 X118.073 Y78.147 E.02173
G1 X117.75 Y78.31 E.01134
G1 X115.884 Y78.342 E.05852
G1 X115.885 Y109.302 E.97073
G1 X126.446 Y109.296 E.33113
G1 X126.446 Y78.342 E.97054
G1 X124.621 Y78.323 E.05722
G1 X124.257 Y78.146 E.01269
G1 X123.878 Y77.766 E.01683
G1 X123.68 Y77.293 E.01608
G1 X123.68 Y74.953 E.07337
G1 X123.812 Y74.57 E.0127
G1 X124.256 Y74.1 E.02027
G1 X124.729 Y73.902 E.01608
G1 X148.283 Y73.902 E.73852
G1 X149.412 Y74.125 E.03608
G1 X150.374 Y74.721 E.03548
G1 X150.636 Y74.983 E.01162
G1 X151.235 Y75.948 E.03561
G1 X151.458 Y77.077 E.03608
G1 X151.458 Y155.167 E2.44846
G1 X151.235 Y156.295 E.03605
G1 X150.636 Y157.259 E.03559
G1 X150.374 Y157.521 E.01162
G1 X149.414 Y158.116 E.03541
G1 X148.283 Y158.342 E.03616
G1 X124.729 Y158.342 E.73852
G1 X124.282 Y158.166 E.01506
G1 X123.812 Y157.674 E.02133
G1 X123.68 Y157.291 E.0127
G1 X123.68 Y154.953 E.07331
G1 X123.812 Y154.57 E.0127
G1 X124.282 Y154.078 E.02133
G1 X124.668 Y153.913 E.01316
G1 X126.446 Y153.901 E.05575
G1 X126.444 Y122.94 E.97076
G1 X115.884 Y122.946 E.3311
G1 X115.884 Y153.902 E.9706
G1 X117.71 Y153.921 E.05726
G1 X118.074 Y154.098 E.01269
G1 X118.454 Y154.478 E.01685
G1 X118.651 Y154.951 E.01607
G1 X118.651 Y157.291 E.07337
G1 X118.456 Y157.764 E.01604
G1 X118.076 Y158.144 E.01685
G1 X117.602 Y158.342 E.01611
G1 X91.608 Y158.342 E.81502
G1 X91.052 Y158.22 E.01785
G1 X90.701 Y158.041 E.01235
G1 X90.295 Y157.652 E.01763
G1 X90.065 Y157.236 E.0149
G1 X89.946 Y156.678 E.01789
G1 X89.946 Y75.566 E2.54321
G1 X90.065 Y75.009 E.01786
G1 X90.249 Y74.674 E.01198
G1 X90.249 Y74.674 F9000
G1 X90.575 Y74.859
G1 F1200
G1 X90.604 Y74.809 E.00181
G1 X90.936 Y74.496 E.01431
G1 X91.631 Y74.279 E.02283
G1 X117.613 Y74.286 E.81465
G1 X117.832 Y74.389 E.00759
G1 X118.165 Y74.722 E.01477
G1 X118.274 Y74.972 E.00855
G1 X118.274 Y77.258 E.07168
G1 X118.193 Y77.485 E.00756
G1 X117.832 Y77.855 E.01621
G1 X117.581 Y77.965 E.00859
G1 X115.507 Y77.965 E.06503
G1 X115.508 Y109.679 E.99437
G1 X126.823 Y109.673 E.35477
G1 X126.823 Y77.965 E.99418
G1 X124.75 Y77.965 E.065
G1 X124.5 Y77.855 E.00856
G1 X124.139 Y77.485 E.01621
G1 X124.057 Y77.258 E.00757
G1 X124.057 Y74.986 E.07124
G1 X124.157 Y74.732 E.00856
G1 X124.51 Y74.379 E.01565
G1 X124.764 Y74.279 E.00856
G1 X148.265 Y74.279 E.73686
G1 X149.276 Y74.477 E.0323
G1 X150.149 Y75.025 E.03232
G1 X150.883 Y76.083 E.04037
G1 X151.081 Y77.095 E.03233
G1 X151.081 Y155.149 E2.44733
G1 X150.882 Y156.159 E.03228
G1 X150.333 Y157.034 E.03239
G1 X149.278 Y157.764 E.04023
G1 X148.265 Y157.965 E.03238
G1 X124.764 Y157.965 E.73686
G1 X124.51 Y157.865 E.00856
G1 X124.139 Y157.485 E.01665
G1 X124.057 Y157.258 E.00757
G1 X124.057 Y154.986 E.07124
G1 X124.157 Y154.732 E.00856
G1 X124.51 Y154.379 E.01565
G1 X124.764 Y154.279 E.00856
G1 X126.823 Y154.279 E.06456
G1 X126.821 Y122.563 E.99443
G1 X115.507 Y122.569 E.35474
G1 X115.507 Y154.279 E.99424
G1 X117.581 Y154.279 E.06503
G1 X117.832 Y154.389 E.00859
G1 X118.193 Y154.759 E.01621
G1 X118.274 Y154.986 E.00756
G1 X118.274 Y157.258 E.07124
G1 X118.175 Y157.512 E.00855
G1 X117.821 Y157.865 E.01567
G1 X117.567 Y157.965 E.00856
G1 X91.63 Y157.965 E.81324
G1 X90.937 Y157.746 E.02279
G1 X90.606 Y157.438 E.01418
G1 X90.427 Y157.124 E.01133
G1 X90.323 Y156.657 E.015
G1 X90.323 Y75.587 E2.54189
G1 X90.427 Y75.12 E.015
G1 X90.545 Y74.912 E.0075
G1 X90.545 Y74.912 F9000
G1 X90.845 Y75.164
G1 F1200
G1 X91.138 Y74.815 E.01429
G1 X91.653 Y74.656 E.0169
G1 X117.525 Y74.656 E.8112
G1 X117.897 Y75.028 E.0165
G1 X117.868 Y77.285 E.07077
G1 X117.525 Y77.588 E.01435
G1 X115.129 Y77.588 E.07512
G1 X115.131 Y110.056 E1.01801
G1 X127.2 Y110.05 E.37842
G1 X127.2 Y77.588 E1.01782
G1 X124.806 Y77.588 E.07506
G1 X124.463 Y77.285 E.01435
G1 X124.434 Y75.028 E.07077
G1 X124.737 Y74.685 E.01435
G1 X148.247 Y74.656 E.73714
G1 X149.144 Y74.831 E.02866
G1 X149.924 Y75.328 E.029
G1 X150.529 Y76.215 E.03366
G1 X150.703 Y77.113 E.02868
G1 X150.703 Y155.131 E2.4462
G1 X150.529 Y156.027 E.02862
G1 X150.03 Y156.809 E.02909
G1 X149.145 Y157.411 E.03356
G1 X148.247 Y157.588 E.0287
G1 X124.806 Y157.588 E.73498
G1 X124.463 Y157.285 E.01435
G1 X124.434 Y155.028 E.07077
G1 X124.737 Y154.685 E.01435
G1 X127.2 Y154.656 E.07723
G1 X127.198 Y122.185 E1.01811
G1 X115.129 Y122.192 E.37842
G1 X115.129 Y154.656 E1.01789
G1 X117.525 Y154.656 E.07512
G1 X117.868 Y154.959 E.01435
G1 X117.897 Y157.216 E.07077
G1 X117.595 Y157.559 E.01433
G1 X91.653 Y157.588 E.81339
G1 X91.139 Y157.427 E.01689
G1 X90.787 Y157.011 E.01709
G1 X90.7 Y156.634 E.01213
G1 X90.7 Y75.609 E2.54048
G1 X90.787 Y75.233 E.0121
G1 X90.807 Y75.21 E.00096
G1 X90.807 Y75.21 F9000
G1 X91.147 Y75.35
G1 F1200
G1 X91.352 Y75.127 E.0095
G1 X91.677 Y75.033 E.01061
G1 X117.41 Y75.033 E.80684
G1 X117.52 Y75.144 E.0049
G1 X117.52 Y77.1 E.06133
G1 X117.41 Y77.211 E.0049
G1 X115.077 Y77.211 E.07315
G1 X114.909 Y77.254 E.00544
G1 X114.752 Y77.532 E.01001
G1 X114.752 Y109.943 E1.01622
G1 X114.869 Y110.337 E.01289
G1 X115.06 Y110.433 E.0067
G1 X127.27 Y110.433 E.38284
G1 X127.461 Y110.337 E.0067
G1 X127.577 Y109.943 E.01288
G1 X127.577 Y77.532 E1.01622
G1 X127.533 Y77.366 E.00538
G1 X127.253 Y77.211 E.01003
G1 X124.922 Y77.211 E.07309
G1 X124.811 Y77.1 E.00492
G1 X124.811 Y75.144 E.06133
G1 X124.922 Y75.033 E.00492
G1 X148.228 Y75.033 E.73074
G1 X149.02 Y75.187 E.0253
G1 X149.7 Y75.631 E.02546
G1 X150.173 Y76.34 E.02672
G1 X150.326 Y77.131 E.02526
G1 X150.326 Y155.112 E2.44504
G1 X150.173 Y155.902 E.02523
G1 X149.726 Y156.584 E.02557
G1 X149.02 Y157.055 E.02661
G1 X148.228 Y157.211 E.02531
G1 X124.922 Y157.211 E.73074
G1 X124.811 Y157.1 E.00492
G1 X124.811 Y155.144 E.06133
G1 X124.922 Y155.033 E.00492
G1 X127.252 Y155.033 E.07306
G1 X127.533 Y154.874 E.01012
G1 X127.577 Y154.708 E.00538
G1 X127.577 Y122.299 E1.01616
G1 X127.461 Y121.905 E.01288
G1 X127.27 Y121.809 E.0067
G1 X115.06 Y121.809 E.38284
G1 X114.869 Y121.905 E.0067
G1 X114.752 Y122.299 E.01289
G1 X114.752 Y154.708 E1.01616
G1 X114.91 Y154.987 E.01005
G1 X115.078 Y155.033 E.00546
G1 X117.41 Y155.033 E.07312
G1 X117.52 Y155.144 E.0049
G1 X117.52 Y157.1 E.06133
G1 X117.41 Y157.211 E.0049
G1 X91.677 Y157.211 E.80684
G1 X91.352 Y157.116 E.01062
G1 X91.147 Y156.894 E.00947
G1 X91.077 Y156.611 E.00914
G1 X91.077 Y75.633 E2.53901
G1 X91.132 Y75.408 E.00726
G1 E-3.5 F3600
;WIPE_START
G1 F7200
G1 X91.147 Y75.35 E-.02846
G1 X91.352 Y75.127 E-.14388
G1 X91.677 Y75.033 E-.1607
G1 X94.134 Y75.033 E-1.16696
;WIPE_END
; printing object podst.stl id:2 copy 0
G1 X125.456 Y152.912 F9000
G1 E5 F2400
;TYPE:Support material
G1 F1200
G1 X124.85 Y152.912 E.019
G1 X123.118 Y153.787 E.06084
G1 X122.69 Y155.088 E.04294
G1 X122.69 Y157.172 E.06534
G1 X123.565 Y158.904 E.06084
G1 X124.866 Y159.332 E.04294
G1 X126.283 Y159.332 E.04443
G1 X126.283 Y161.217 E.0591
G1 X116.435 Y161.217 E.30878
G1 X116.435 Y159.9 E.04129
G1 X115.118 Y159.9 E.04129
G1 X115.118 Y159.332 E.01781
G1 X117.482 Y159.332 E.07412
G1 X119.214 Y158.457 E.06084
G1 X119.642 Y157.156 E.04294
G1 X119.642 Y155.072 E.06534
G1 X118.766 Y153.34 E.06086
G1 X117.465 Y152.912 E.04294
G1 X116.874 Y152.912 E.01853
G1 X116.876 Y123.93 E.90871
G1 X125.456 Y123.93 E.26902
G1 X125.456 Y152.855 E.90692
G1 E-3.5 F3600
;WIPE_START
G1 F7200
G1 X125.456 Y149.697 E-1.5
;WIPE_END
G1 X125.729 Y161.047 F9000
G1 E5 F2400
G1 F1200
G1 X125.729 Y159.671 E.04314
G1 X125.31 Y159.671 E.01314
G1 X125.31 Y160.878 E.03784
G1 X124.891 Y160.878 E.01314
G1 X124.891 Y159.671 E.03784
G1 X124.472 Y159.559 E.0136
G1 X124.472 Y160.878 E.04136
G1 X124.053 Y160.878 E.01314
G1 X124.053 Y159.422 E.04565
G1 X123.634 Y159.284 E.01383
G1 X123.634 Y160.878 E.04998
G1 X123.215 Y160.878 E.01314
G1 X123.215 Y158.963 E.06004
G1 X122.796 Y158.134 E.02912
G1 X122.796 Y160.878 E.08604
G1 X122.377 Y160.878 E.01314
G1 X122.377 Y124.269 E1.14785
G1 X122.796 Y124.269 E.01314
G1 X122.796 Y153.68 E.92216
G1 X122.839 Y153.548 E.00435
G1 X123.215 Y153.358 E.01321
G1 X123.215 Y124.269 E.91207
G1 X123.634 Y124.269 E.01314
G1 X123.634 Y153.146 E.90542
G1 X124.053 Y152.935 E.01471
G1 X124.053 Y124.269 E.8988
G1 X124.472 Y124.269 E.01314
G1 X124.472 Y152.723 E.89216
G1 X124.891 Y152.573 E.01395
G1 X124.891 Y124.1 E.89275
G1 X124.891 Y124.1 F9000
G1 X121.958 Y161.047
G1 F1200
G1 X121.958 Y124.269 E1.15315
G1 X121.539 Y124.269 E.01314
G1 X121.539 Y160.878 E1.14785
G1 X121.12 Y160.878 E.01314
G1 X121.12 Y124.269 E1.14785
G1 X120.701 Y124.269 E.01314
G1 X120.701 Y160.878 E1.14785
G1 X120.282 Y160.878 E.01314
G1 X120.282 Y124.269 E1.14785
G1 X119.863 Y124.269 E.01314
G1 X119.863 Y160.878 E1.14785
G1 X119.444 Y160.878 E.01314
G1 X119.444 Y158.721 E.06763
G1 X119.025 Y158.932 E.01471
G1 X119.025 Y160.878 E.06102
G1 X118.606 Y160.878 E.01314
G1 X118.606 Y159.144 E.05437
G1 X118.187 Y159.356 E.01472
G1 X118.187 Y160.878 E.04772
G1 X117.768 Y160.878 E.01314
G1 X117.768 Y159.567 E.04111
G1 X117.562 Y159.671 E.00724
G1 X117.349 Y159.671 E.00668
G1 X117.349 Y160.878 E.03784
G1 X116.93 Y160.878 E.01314
G1 X116.93 Y159.502 E.04314
G1 E-3.5 F3600
;WIPE_START
G1 F7200
G1 X116.93 Y160.878 E-.6536
G1 X117.349 Y160.878 E-.19902
G1 X117.349 Y159.671 E-.57333
G1 X117.505 Y159.671 E-.07405
;WIPE_END
G1 X119.444 Y154.304 F9000
G1 E5 F2400
G1 F1200
G1 X119.444 Y124.269 E.94173
G1 X119.025 Y124.269 E.01314
G1 X119.025 Y153.099 E.90394
G1 X118.606 Y152.93 E.01417
G1 X118.606 Y124.269 E.89865
G1 X118.187 Y124.269 E.01314
G1 X118.187 Y152.792 E.89432
G1 X117.768 Y152.654 E.01383
G1 X117.768 Y124.269 E.88999
G1 X117.349 Y124.269 E.01314
G1 X117.349 Y152.742 E.89275
G1 E-3.5 F3600
;WIPE_START
G1 F7200
G1 X117.349 Y149.584 E-1.5
;WIPE_END
G1 X88.956 Y149.363 F9000
G1 E5 F2400
G1 F1200
G1 X87.46 Y149.363 E.04691
G1 X87.46 Y138.198 E.35007
G1 X88.956 Y138.198 E.04691
G1 X88.956 Y149.307 E.34831
G1 X88.956 Y149.307 F9000
G1 X88.44 Y149.194
G1 F1200
G1 X88.44 Y138.537 E.33414
G1 X88.021 Y138.537 E.01314
G1 X88.021 Y149.194 E.33414
G1 E-3.5 F3600
;WIPE_START
G1 F7200
G1 X88.021 Y146.036 E-1.5
;WIPE_END
G1 X88.956 Y124.339 F9000
G1 E5 F2400
G1 F1200
G1 X87.46 Y124.339 E.04691
G1 X87.46 Y107.905 E.51528
G1 X88.956 Y107.905 E.04691
G1 X88.956 Y124.282 E.51349
G1 X88.956 Y124.282 F9000
G1 X88.44 Y124.169
G1 F1200
G1 X88.44 Y108.245 E.49929
G1 X88.021 Y108.245 E.01314
G1 X88.021 Y124.169 E.49929
G1 E-3.5 F3600
;WIPE_START
G1 F7200
G1 X88.021 Y121.011 E-1.5
;WIPE_END
G1 X88.956 Y94.046 F9000
G1 E5 F2400
G1 F1200
G1 X87.46 Y94.046 E.04691
G1 X87.46 Y81.564 E.39136
G1 X88.956 Y81.564 E.04691
G1 X88.956 Y93.989 E.38958
G1 X88.956 Y93.989 F9000
G1 X88.44 Y93.876
G1 F1200
G1 X88.44 Y81.903 E.37541
G1 X88.021 Y81.903 E.01314
G1 X88.021 Y93.876 E.37541
G1 E-3.5 F3600
;WIPE_START
G1 F7200
G1 X88.021 Y90.718 E-1.5
;WIPE_END
G1 X126.283 Y72.912 F9000
G1 E5 F2400
G1 F1200
G1 X124.85 Y72.912 E.04493
G1 X123.118 Y73.787 E.06084
G1 X122.69 Y75.088 E.04294
G1 X122.69 Y77.172 E.06534
G1 X123.565 Y78.904 E.06084
G1 X124.866 Y79.332 E.04294
G1 X125.456 Y79.332 E.0185
G1 X125.454 Y108.312 E.90865
