; generated by PrusaSlicer 2.7.4+win64 on 2024-05-11 at 20:02:49 UTC

; 

; external perimeters extrusion width = 0.42mm
; perimeters extrusion width = 0.44mm
; infill extrusion width = 0.44mm
; solid infill extrusion width = 0.44mm
; top infill extrusion width = 0.40mm
; support material extrusion width = 0.36mm
; first layer extrusion width = 0.42mm

M201 X500 Y500 Z100 E5000 ; sets maximum accelerations, mm/sec^2
M203 X500 Y500 Z10 E60 ; sets maximum feedrates, mm / sec
M204 S500 T1000 ; sets acceleration (S) and retract acceleration (R), mm/sec^2
M205 X8.00 Y8.00 Z0.40 E5.00 ; sets the jerk limits, mm/sec
M205 S0 T0 ; sets the minimum extruding and travel feed rate, mm/sec

; printing object podstawa_PCB.stl id:2 copy 0
; stop printing object podstawa_PCB.stl id:2 copy 0

;TYPE:Custom
G90 ; use absolute coordinates
M83 ; extruder relative mode
M104 S150 ; set temporary nozzle temp to prevent oozing during homing
M140 S60 ; set final bed temp
G4 S30 ; allow partial nozzle warmup
G28 ; home all axis
G29
G1 Z50 F240
G1 X2.0 Y10 F3000
M104 S210 ; set final nozzle temp
M190 S60 ; wait for bed temp to stabilize
M109 S210 ; wait for nozzle temp to stabilize
G1 Z0.28 F240
G92 E0
G1 X2.0 Y140 E10 F1500 ; prime the nozzle
G1 X2.3 Y140 F5000
G92 E0
G1 X2.3 Y10 E10 F1200 ; prime the nozzle
G92 E0
G21 ; set units to millimeters
G90 ; use absolute coordinates
M83 ; use relative distances for extrusion
; Filament gcode
M107
;LAYER_CHANGE
;Z:0.2
;HEIGHT:0.2
G1 E-5 F3600
G1 Z.2 F9000
G1 X72.624 Y87.645
G1 Z.2
G1 E5 F2400
M204 S500
;TYPE:Skirt/Brim
;WIDTH:0.42
G1 F1200
G1 X73.323 Y87.109 E.02762
G1 X74.594 Y86.508 E.04408
G1 X75.619 Y86.263 E.03304
G1 X76.32 Y86.2 E.02207
G1 X157.997 Y86.229 E2.56093
G1 X159.282 Y86.508 E.04123
G1 X160.097 Y86.845 E.02765
G1 X161.252 Y87.645 E.04405
G1 X161.77 Y88.163 E.02297
G1 X162.306 Y88.862 E.02762
G1 X162.907 Y90.133 E.04408
G1 X163.152 Y91.158 E.03304
G1 X163.215 Y91.859 E.02207
G1 X163.215 Y148.639 E1.7803
G1 X162.927 Y150.519 E.05963
G1 X162.584 Y151.516 E.03306
G1 X161.642 Y153.043 E.05626
G1 X161.222 Y153.555 E.02076
G1 X160.431 Y154.254 E.0331
G1 X159.488 Y154.884 E.03556
G1 X158.54 Y155.347 E.03308
G1 X156.881 Y155.743 E.05348
G1 X156.027 Y155.827 E.02691
G1 X77.85 Y155.827 E2.45118
G1 X75.97 Y155.539 E.05963
G1 X74.972 Y155.196 E.03309
G1 X73.445 Y154.254 E.05626
G1 X72.933 Y153.834 E.02076
G1 X72.235 Y153.043 E.03308
G1 X71.604 Y152.1 E.03558
G1 X71.141 Y151.152 E.03308
G1 X70.745 Y149.493 E.05348
G1 X70.661 Y148.639 E.02691
G1 X70.661 Y91.859 E1.7803
G1 X70.81 Y90.725 E.03586
G1 X71.306 Y89.318 E.04678
G1 X72.106 Y88.163 E.04405
G1 X72.581 Y87.688 E.02106
G1 E-3.5 F3600
;WIPE_START
G1 F7200
G1 X72.624 Y87.645 E-.02889
G1 X73.323 Y87.109 E-.4184
G1 X74.594 Y86.508 E-.66782
G1 X75.382 Y86.32 E-.38489
;WIPE_END
G1 X75.18 Y90.317 F9000
G1 E5 F2400
G1 F1200
G1 X75.23 Y90.268 E.0022
G1 X75.723 Y90.014 E.01739
G1 X76.361 Y89.88 E.02044
G1 X93.316 Y89.884 E.53161
G1 X94.819 Y90.164 E.04794
G1 X96.075 Y90.864 E.04508
G1 X97.047 Y91.907 E.0447
G1 X97.598 Y93.028 E.03916
G1 X97.822 Y94.266 E.03945
G1 X97.835 Y127.424 E1.03965
G1 X97.923 Y127.978 E.01759
G1 X98.119 Y128.363 E.01355
G1 X98.425 Y128.669 E.01357
G1 X98.811 Y128.866 E.01359
G1 X99.364 Y128.953 E.01755
G1 X134.512 Y128.953 E1.10204
G1 X135.066 Y128.866 E.01758
G1 X135.451 Y128.669 E.01356
G1 X135.757 Y128.363 E.01357
G1 X135.954 Y127.978 E.01356
G1 X136.041 Y127.424 E.01758
G1 X136.041 Y94.426 E1.03463
G1 X136.257 Y93.094 E.04231
G1 X136.828 Y91.909 E.04124
G1 X138.07 Y90.667 E.05507
G1 X139.255 Y90.096 E.04124
G1 X140.587 Y89.88 E.04231
G1 X157.516 Y89.88 E.5308
G1 X158.161 Y90.016 E.02067
G1 X158.748 Y90.346 E.02111
G1 X159.299 Y91.012 E.0271
G1 X159.535 Y91.896 E.02869
G1 X159.535 Y148.613 E1.77832
G1 X159.286 Y149.863 E.03996
G1 X158.527 Y151.046 E.04407
G1 X157.374 Y151.847 E.04402
G1 X156 Y152.147 E.0441
G1 X77.875 Y152.147 E2.44955
G1 X76.625 Y151.898 E.03996
G1 X75.442 Y151.139 E.04407
G1 X74.641 Y149.986 E.04402
G1 X74.341 Y148.612 E.0441
G1 X74.341 Y91.9 E1.77816
G1 X74.477 Y91.253 E.02073
G1 X74.75 Y90.742 E.01817
G1 X75.138 Y90.359 E.01709
G1 X75.138 Y90.359 F9000
G1 X75.398 Y90.629
G1 F1200
G1 X75.471 Y90.559 E.00317
G1 X75.827 Y90.377 E.01254
G1 X76.381 Y90.257 E.01777
G1 X93.299 Y90.261 E.53045
G1 X94.666 Y90.509 E.04356
G1 X95.822 Y91.145 E.04137
G1 X96.721 Y92.099 E.0411
G1 X97.247 Y93.169 E.03738
G1 X97.448 Y94.314 E.03645
G1 X97.458 Y127.454 E1.03908
G1 X97.559 Y128.096 E.02038
G1 X97.81 Y128.588 E.01732
G1 X98.201 Y128.978 E.01732
G1 X98.693 Y129.229 E.01732
G1 X99.334 Y129.33 E.02035
G1 X134.542 Y129.33 E1.10392
G1 X135.184 Y129.229 E.02038
G1 X135.676 Y128.978 E.01732
G1 X136.066 Y128.588 E.01729
G1 X136.317 Y128.096 E.01732
G1 X136.418 Y127.454 E.02038
G1 X136.418 Y94.44 E1.03513
G1 X136.609 Y93.232 E.03835
G1 X137.154 Y92.102 E.03934
G1 X138.263 Y90.993 E.04917
G1 X139.393 Y90.448 E.03934
G1 X140.601 Y90.257 E.03835
G1 X157.495 Y90.257 E.5297
G1 X158.053 Y90.378 E.0179
G1 X158.5 Y90.631 E.0161
G1 X158.967 Y91.193 E.02291
G1 X159.158 Y91.92 E.02357
G1 X159.158 Y148.595 E1.777
G1 X158.935 Y149.724 E.03608
G1 X158.257 Y150.782 E.0394
G1 X157.225 Y151.5 E.03942
G1 X155.983 Y151.77 E.03985
G1 X77.893 Y151.77 E2.44846
G1 X76.764 Y151.547 E.03608
G1 X75.706 Y150.869 E.0394
G1 X74.988 Y149.837 E.03942
G1 X74.718 Y148.595 E.03985
G1 X74.718 Y91.92 E1.777
G1 X74.84 Y91.361 E.01794
G1 X75.065 Y90.95 E.01469
G1 X75.355 Y90.67 E.01264
G1 X75.355 Y90.67 F9000
G1 X75.612 Y90.943
G1 F1200
G1 X75.708 Y90.853 E.00413
G1 X76.403 Y90.634 E.02285
G1 X93.283 Y90.638 E.52926
G1 X94.514 Y90.856 E.0392
G1 X95.57 Y91.427 E.03764
G1 X96.397 Y92.294 E.03757
G1 X96.88 Y93.262 E.03392
G1 X97.073 Y94.363 E.03505
G1 X97.081 Y127.484 E1.03849
G1 X97.196 Y128.214 E.02317
G1 X97.501 Y128.812 E.02105
G1 X97.976 Y129.287 E.02106
G1 X98.575 Y129.592 E.02108
G1 X99.304 Y129.707 E.02314
G1 X134.572 Y129.707 E1.1058
G1 X135.301 Y129.592 E.02314
G1 X135.9 Y129.287 E.02108
G1 X136.375 Y128.812 E.02106
G1 X136.68 Y128.214 E.02105
G1 X136.795 Y127.484 E.02317
G1 X136.795 Y94.455 E1.0356
G1 X136.977 Y93.32 E.03604
G1 X137.478 Y92.296 E.03574
G1 X138.457 Y91.317 E.04341
G1 X139.481 Y90.816 E.03574
G1 X140.616 Y90.634 E.03604
G1 X157.473 Y90.634 E.52854
G1 X157.942 Y90.74 E.01508
G1 X158.251 Y90.915 E.01113
G1 X158.633 Y91.37 E.01863
G1 X158.781 Y91.943 E.01856
G1 X158.781 Y148.577 E1.77572
G1 X158.583 Y149.588 E.0323
G1 X157.984 Y150.521 E.03476
G1 X157.074 Y151.154 E.03476
G1 X155.965 Y151.393 E.03557
G1 X77.911 Y151.393 E2.44733
G1 X76.9 Y151.195 E.0323
G1 X75.967 Y150.596 E.03476
G1 X75.334 Y149.686 E.03476
G1 X75.095 Y148.577 E.03557
G1 X75.095 Y91.942 E1.77575
G1 X75.201 Y91.473 E.01508
G1 X75.377 Y91.164 E.01115
G1 X75.568 Y90.984 E.00823
G1 X75.568 Y90.984 F9000
G1 X75.815 Y91.288
G1 F1200
G1 X76.045 Y91.101 E.00929
G1 X76.426 Y91.012 E.01227
G1 X93.268 Y91.015 E.52807
G1 X94.365 Y91.203 E.0349
G1 X95.321 Y91.712 E.03396
G1 X96.073 Y92.489 E.0339
G1 X96.53 Y93.405 E.0321
G1 X96.699 Y94.409 E.03192
G1 X96.704 Y127.513 E1.03795
G1 X96.833 Y128.332 E.026
G1 X97.192 Y129.036 E.02478
G1 X97.752 Y129.596 E.02483
G1 X98.457 Y129.955 E.02481
G1 X99.275 Y130.085 E.02597
G1 X134.601 Y130.085 E1.10762
G1 X135.419 Y129.955 E.02597
G1 X136.124 Y129.596 E.02481
G1 X136.684 Y129.036 E.02483
G1 X137.043 Y128.332 E.02478
G1 X137.172 Y127.513 E.026
G1 X137.172 Y94.471 E1.03601
G1 X137.344 Y93.409 E.03373
G1 X137.802 Y92.492 E.03214
G1 X138.653 Y91.641 E.03773
G1 X139.57 Y91.184 E.03212
G1 X140.632 Y91.012 E.03373
G1 X157.451 Y91.012 E.52735
G1 X158.002 Y91.199 E.01824
G1 X158.297 Y91.542 E.01418
G1 X158.404 Y91.966 E.01371
G1 X158.404 Y148.559 E1.77443
G1 X158.229 Y149.456 E.02866
G1 X157.708 Y150.264 E.03014
G1 X156.918 Y150.811 E.03013
G1 X155.947 Y151.016 E.03112
G1 X77.93 Y151.016 E2.44617
G1 X77.032 Y150.841 E.02869
G1 X76.224 Y150.32 E.03014
G1 X75.678 Y149.53 E.03011
G1 X75.472 Y148.559 E.03112
G1 X75.472 Y91.964 E1.7745
G1 X75.659 Y91.415 E.01818
G1 X75.769 Y91.326 E.00444
G1 X75.769 Y91.326 F9000
G1 X76.039 Y91.575
G1 F1200
G1 X76.124 Y91.483 E.00393
G1 X76.45 Y91.389 E.01064
G1 X93.253 Y91.392 E.52685
G1 X94.218 Y91.552 E.03067
G1 X95.074 Y91.998 E.03026
G1 X95.751 Y92.687 E.03029
G1 X96.163 Y93.496 E.02847
G1 X96.324 Y94.456 E.03052
G1 X96.327 Y127.543 E1.03742
G1 X96.47 Y128.449 E.02876
G1 X96.884 Y129.261 E.02858
G1 X97.527 Y129.905 E.02853
G1 X98.339 Y130.318 E.02856
G1 X99.245 Y130.462 E.02876
G1 X134.631 Y130.462 E1.1095
G1 X135.537 Y130.318 E.02876
G1 X136.349 Y129.905 E.02856
G1 X136.993 Y129.261 E.02856
G1 X137.406 Y128.449 E.02856
G1 X137.55 Y127.543 E.02876
G1 X137.55 Y94.485 E1.03651
G1 X137.695 Y93.551 E.02964
G1 X138.126 Y92.687 E.03027
G1 X138.848 Y91.965 E.03201
G1 X139.712 Y91.534 E.03027
G1 X140.646 Y91.389 E.02964
G1 X157.427 Y91.389 E.52616
G1 X157.752 Y91.483 E.01061
G1 X157.956 Y91.705 E.00945
G1 X158.027 Y91.989 E.00918
G1 X158.027 Y148.541 E1.77315
G1 X157.873 Y149.332 E.02527
G1 X157.427 Y150.012 E.0255
G1 X156.754 Y150.471 E.02554
G1 X155.929 Y150.639 E.0264
G1 X77.948 Y150.639 E2.44504
G1 X77.156 Y150.485 E.0253
G1 X76.476 Y150.039 E.0255
G1 X76.017 Y149.366 E.02554
G1 X75.85 Y148.541 E.02639
G1 X75.85 Y91.989 E1.77315
G1 X75.92 Y91.705 E.00917
G1 X75.999 Y91.619 E.00366
; printing object podstawa_PCB.stl id:2 copy 0
G1 X75.999 Y91.619 F9000
G1 X76.316 Y91.855
;TYPE:External perimeter
;WIDTH:0.419999
G1 F1200
G1 X76.479 Y91.787 E.00554
G1 X93.237 Y91.791 E.52543
G1 X94.068 Y91.922 E.02638
G1 X94.817 Y92.304 E.02636
G1 X95.411 Y92.898 E.02634
G1 X95.793 Y93.647 E.02636
G1 X95.928 Y94.502 E.02714
G1 X95.93 Y127.589 E1.03742
G1 X96.1 Y128.601 E.03218
G1 X96.578 Y129.519 E.03245
G1 X97.269 Y130.21 E.03064
G1 X98.244 Y130.706 E.0343
G1 X99.229 Y130.86 E.03126
G1 X134.648 Y130.86 E1.11054
G1 X135.633 Y130.706 E.03126
G1 X136.607 Y130.21 E.03427
G1 X137.333 Y129.471 E.03248
G1 X137.794 Y128.545 E.03243
G1 X137.948 Y127.56 E.03126
G1 X137.948 Y94.502 E1.03651
G1 X138.083 Y93.647 E.02714
G1 X138.465 Y92.898 E.02636
G1 X139.059 Y92.304 E.02634
G1 X139.808 Y91.922 E.02636
G1 X140.663 Y91.787 E.02714
G1 X157.397 Y91.787 E.52468
G1 X157.56 Y91.855 E.00554
G1 X157.628 Y92.018 E.00554
G1 X157.628 Y148.52 E1.77158
G1 X157.494 Y149.195 E.02158
G1 X157.129 Y149.741 E.02059
G1 X156.583 Y150.106 E.02059
G1 X155.908 Y150.24 E.02158
G1 X77.969 Y150.24 E2.44372
G1 X77.294 Y150.106 E.02158
G1 X76.747 Y149.741 E.02062
G1 X76.382 Y149.195 E.02059
G1 X76.248 Y148.52 E.02158
G1 X76.248 Y92.018 E1.77158
G1 X76.293 Y91.91 E.00367
G1 X76.293 Y91.91 F9000
G1 X76.625 Y92.164
;TYPE:Perimeter
G1 F1200
G1 X93.207 Y92.168 E.51992
G1 X93.95 Y92.286 E.02359
G1 X94.593 Y92.613 E.02262
G1 X95.102 Y93.123 E.02259
G1 X95.43 Y93.765 E.0226
G1 X95.551 Y94.531 E.02432
G1 X95.551 Y127.56 E1.0356
G1 X95.764 Y128.772 E.03858
G1 X96.312 Y129.786 E.03614
G1 X97.003 Y130.477 E.03064
G1 X97.367 Y130.694 E.01329
G1 X98.185 Y131.079 E.02835
G1 X99.229 Y131.237 E.03311
G1 X134.648 Y131.237 E1.11054
G1 X135.692 Y131.079 E.03311
G1 X136.041 Y130.932 E.01187
G1 X136.874 Y130.477 E.02976
G1 X137.291 Y130.06 E.01849
G1 X137.669 Y129.643 E.01765
G1 X138.167 Y128.604 E.03613
G1 X138.325 Y127.56 E.03311
G1 X138.325 Y94.531 E1.0356
G1 X138.447 Y93.765 E.02432
G1 X138.774 Y93.123 E.02259
G1 X139.284 Y92.613 E.02261
G1 X139.926 Y92.286 E.02259
G1 X140.692 Y92.164 E.02432
G1 X157.251 Y92.164 E.51919
G1 X157.251 Y148.482 E1.76581
G1 X157.139 Y149.047 E.01806
G1 X156.857 Y149.469 E.01591
G1 X156.435 Y149.751 E.01591
G1 X155.87 Y149.863 E.01806
G1 X78.006 Y149.863 E2.44137
G1 X77.441 Y149.751 E.01806
G1 X77.019 Y149.469 E.01591
G1 X76.738 Y149.047 E.0159
G1 X76.625 Y148.482 E.01807
G1 X76.625 Y92.224 E1.76393
G1 X76.625 Y92.224 F9000
G1 X77.002 Y92.541
G1 F1200
G1 X93.177 Y92.545 E.50715
G1 X93.832 Y92.649 E.02079
G1 X94.368 Y92.922 E.01886
G1 X94.794 Y93.347 E.01887
G1 X95.067 Y93.883 E.01886
G1 X95.174 Y94.561 E.02152
G1 X95.174 Y127.56 E1.03466
G1 X95.337 Y128.663 E.03496
G1 X95.428 Y128.943 E.00923
G1 X95.872 Y129.814 E.03065
G1 X96.045 Y130.052 E.00923
G1 X96.736 Y130.743 E.03064
G1 X96.974 Y130.917 E.00924
G1 X97.845 Y131.36 E.03064
G1 X98.126 Y131.451 E.00926
G1 X99.229 Y131.614 E.03496
G1 X134.648 Y131.614 E1.11054
G1 X135.751 Y131.451 E.03496
G1 X136.031 Y131.36 E.00923
G1 X136.902 Y130.917 E.03064
G1 X137.14 Y130.743 E.00924
G1 X137.831 Y130.052 E.03064
G1 X138.005 Y129.814 E.00924
G1 X138.448 Y128.943 E.03064
G1 X138.539 Y128.663 E.00923
G1 X138.702 Y127.56 E.03496
G1 X138.702 Y94.561 E1.03466
G1 X138.81 Y93.883 E.02153
G1 X139.083 Y93.347 E.01886
G1 X139.508 Y92.922 E.01885
G1 X140.044 Y92.649 E.01886
G1 X140.722 Y92.541 E.02153
G1 X156.874 Y92.541 E.50643
G1 X156.874 Y148.332 E1.74928
G1 X156.783 Y148.9 E.01804
G1 X156.585 Y149.197 E.01119
G1 X156.288 Y149.395 E.01119
G1 X155.833 Y149.486 E.01455
G1 X78.157 Y149.486 E2.43547
G1 X77.588 Y149.395 E.01807
G1 X77.291 Y149.197 E.01119
G1 X77.093 Y148.9 E.01119
G1 X77.002 Y148.445 E.01455
G1 X77.002 Y92.601 E1.75095
G1 E-3.5 F3600
;WIPE_START
G1 F7200
G1 X77.002 Y92.541 E-.0285
G1 X80.1 Y92.542 E-1.4715
;WIPE_END
G1 X150.243 Y96.61 F9000
G1 E5 F2400
;TYPE:External perimeter
G1 F1200
G1 X150.842 Y95.92 E.02865
G1 X151.639 Y95.596 E.02698
G1 X152.545 Y95.672 E.02851
G1 X153.314 Y96.161 E.02857
G1 X153.782 Y97.002 E.03018
G1 X153.803 Y97.865 E.02707
G1 X153.411 Y98.684 E.02847
G1 X152.632 Y99.25 E.03019
G1 X151.778 Y99.375 E.02706
G1 X151.142 Y99.166 E.02099
G1 X150.842 Y99.035 E.01026
G1 X150.287 Y98.426 E.02583
G1 X150.035 Y97.55 E.02858
G1 X150.23 Y96.669 E.02829
G1 X150.23 Y96.669 F9000
G1 X149.919 Y96.441
;TYPE:Perimeter
G1 F1200
G1 X150.008 Y96.274 E.00593
G1 X150.564 Y95.666 E.02583
G1 X150.781 Y95.518 E.00824
G1 X151.505 Y95.243 E.02428
G1 X151.766 Y95.21 E.00825
G1 X152.585 Y95.297 E.02582
G1 X152.839 Y95.389 E.00847
G1 X153.524 Y95.847 E.02584
G1 X153.71 Y96.055 E.00875
G1 X154.115 Y96.827 E.02733
G1 X154.18 Y97.09 E.00849
G1 X154.18 Y97.865 E.0243
G1 X154.119 Y98.12 E.00822
G1 X153.747 Y98.855 E.02583
G1 X153.564 Y99.065 E.00873
G1 X152.846 Y99.56 E.02734
G1 X152.593 Y99.656 E.00848
G1 X151.824 Y99.75 E.02429
G1 X151.563 Y99.72 E.00824
G1 X150.789 Y99.439 E.02582
G1 X150.564 Y99.289 E.00848
G1 X150.009 Y98.68 E.02583
G1 X149.879 Y98.442 E.0085
G1 X149.67 Y97.646 E.0258
G1 X149.668 Y97.367 E.00875
G1 X149.877 Y96.52 E.02735
G1 X149.891 Y96.494 E.00093
G1 X149.891 Y96.494 F9000
G1 X149.551 Y96.321
G1 F1200
G1 X149.587 Y96.227 E.00316
G1 X149.73 Y96.02 E.00789
G1 X150.285 Y95.412 E.02581
G1 X150.647 Y95.166 E.01372
G1 X151.372 Y94.891 E.02431
G1 X151.706 Y94.83 E.01065
G1 X152.625 Y94.922 E.02896
G1 X153.049 Y95.076 E.01414
G1 X153.733 Y95.534 E.02581
G1 X153.856 Y95.632 E.00493
G1 X154.044 Y95.879 E.00973
G1 X154.449 Y96.651 E.02733
G1 X154.543 Y96.927 E.00914
G1 X154.557 Y97.865 E.02941
G1 X154.456 Y98.29 E.0137
G1 X154.084 Y99.025 E.02583
G1 X153.945 Y99.228 E.00771
G1 X153.06 Y99.871 E.0343
G1 X152.841 Y99.983 E.00771
G1 X151.869 Y100.124 E.0308
G1 X151.52 Y100.101 E.01097
G1 X150.885 Y99.875 E.02113
G1 X150.432 Y99.673 E.01555
G1 X149.73 Y98.934 E.03196
G1 X149.552 Y98.651 E.01048
G1 X149.306 Y97.741 E.02956
G1 X149.278 Y97.423 E.01001
G1 X149.511 Y96.43 E.03198
G1 X149.53 Y96.377 E.00177
G1 E-3.5 F3600
;WIPE_START
G1 F7200
G1 X149.551 Y96.321 E-.02841
G1 X149.587 Y96.227 E-.04781
G1 X149.73 Y96.02 E-.11951
G1 X150.285 Y95.412 E-.39103
G1 X150.647 Y95.166 E-.2079
G1 X151.372 Y94.891 E-.36832
G1 X151.706 Y94.83 E-.16127
G1 X152.074 Y94.867 E-.17575
;WIPE_END
G1 X152.594 Y142.763 F9000
G1 E5 F2400
;TYPE:External perimeter
G1 F1200
G1 X153.352 Y143.275 E.02868
G1 X153.783 Y144.078 E.02857
G1 X153.803 Y144.938 E.02697
G1 X153.411 Y145.757 E.02847
G1 X152.632 Y146.323 E.03019
G1 X151.726 Y146.443 E.02866
G1 X150.871 Y146.127 E.02858
G1 X150.285 Y145.497 E.02698
G1 X150.035 Y144.623 E.0285
G1 X150.243 Y143.683 E.03019
G1 X150.842 Y142.993 E.02865
G1 X151.639 Y142.669 E.02698
G1 X152.535 Y142.757 E.02823
G1 X152.535 Y142.757 F9000
G1 X152.724 Y142.421
;TYPE:Perimeter
G1 F1200
G1 X152.9 Y142.49 E.00593
