; generated by PrusaSlicer 2.7.4+win64 on 2024-05-11 at 20:11:59 UTC

; 

; external perimeters extrusion width = 0.42mm
; perimeters extrusion width = 0.44mm
; infill extrusion width = 0.44mm
; solid infill extrusion width = 0.44mm
; top infill extrusion width = 0.40mm
; support material extrusion width = 0.36mm
; first layer extrusion width = 0.42mm

M201 X500 Y500 Z100 E5000 ; sets maximum accelerations, mm/sec^2
M203 X500 Y500 Z10 E60 ; sets maximum feedrates, mm / sec
M204 S500 T1000 ; sets acceleration (S) and retract acceleration (R), mm/sec^2
M205 X8.00 Y8.00 Z0.40 E5.00 ; sets the jerk limits, mm/sec
M205 S0 T0 ; sets the minimum extruding and travel feed rate, mm/sec

; printing object pokrywka_baterii.stl id:3 copy 0
; stop printing object pokrywka_baterii.stl id:3 copy 0

;TYPE:Custom
G90 ; use absolute coordinates
M83 ; extruder relative mode
M104 S150 ; set temporary nozzle temp to prevent oozing during homing
M140 S60 ; set final bed temp
G4 S30 ; allow partial nozzle warmup
G28 ; home all axis
G29
G1 Z50 F240
G1 X2.0 Y10 F3000
M104 S210 ; set final nozzle temp
M190 S60 ; wait for bed temp to stabilize
M109 S210 ; wait for nozzle temp to stabilize
G1 Z0.28 F240
G92 E0
G1 X2.0 Y140 E10 F1500 ; prime the nozzle
G1 X2.3 Y140 F5000
G92 E0
G1 X2.3 Y10 E10 F1200 ; prime the nozzle
G92 E0
G21 ; set units to millimeters
G90 ; use absolute coordinates
M83 ; use relative distances for extrusion
; Filament gcode
M107
;LAYER_CHANGE
;Z:0.2
;HEIGHT:0.2
G1 E-5 F3600
G1 Z.2 F9000
G1 X81.421 Y114.206
G1 Z.2
G1 E5 F2400
M204 S500
;TYPE:Skirt/Brim
;WIDTH:0.42
G1 F1200
G1 X82.408 Y113.749 E.0341
G1 X136.226 Y98.762 E1.75163
G1 X137.132 Y98.638 E.02867
G1 X147.663 Y98.638 E.33019
G1 X149.246 Y99.032 E.05115
G1 X150.051 Y99.627 E.03139
G1 X151.685 Y101.261 E.07245
G1 X152.526 Y102.659 E.05115
G1 X152.674 Y103.649 E.03139
G1 X152.674 Y108.912 E.16502
G1 X152.501 Y109.98 E.03392
G1 X151 Y114.373 E.14556
G1 X149.364 Y117.523 E.11129
G1 X145.099 Y123.153 E.22146
G1 X141.786 Y126.419 E.14587
G1 X136.518 Y130.37 E.20647
G1 X133.368 Y132.006 E.11129
G1 X131.858 Y132.362 E.04864
G1 X85.766 Y132.362 E1.44518
G1 X84.182 Y131.968 E.05118
G1 X83.378 Y131.373 E.03136
G1 X81.743 Y129.739 E.07248
G1 X81.166 Y128.966 E.03024
G1 X80.349 Y127.467 E.05353
G1 X79.937 Y125.851 E.05229
G1 X79.937 Y117.003 E.27742
G1 X80.331 Y115.42 E.05115
G1 X81.381 Y114.25 E.04929
G1 E-3.5 F3600
;WIPE_START
G1 F7200
G1 X81.421 Y114.206 E-.0286
G1 X82.408 Y113.749 E-.51664
G1 X84.344 Y113.21 E-.95476
;WIPE_END
; printing object pokrywka_baterii.stl id:3 copy 0
G1 X149.297 Y103.649 F9000
G1 E5 F2400
;TYPE:Support material
G1 F1200
G1 X149.297 Y108.912 E.16502
G1 X147.98 Y110.229 E.0584
G1 X147.98 Y112.863 E.08259
G1 X146.663 Y114.18 E.0584
G1 X146.663 Y115.497 E.04129
G1 X142.712 Y119.448 E.17519
G1 X142.712 Y120.765 E.04129
G1 X139.76 Y123.717 E.1309
G1 X138.443 Y123.717 E.04129
G1 X134.492 Y127.668 E.17519
G1 X133.175 Y127.668 E.04129
G1 X131.858 Y128.985 E.0584
G1 X85.766 Y128.985 E1.44518
G1 X84.131 Y127.351 E.07248
G1 X84.131 Y125.851 E.04703
G1 X83.314 Y125.851 E.02562
G1 X83.314 Y117.003 E.27742
G1 X85.266 Y117.003 E.0612
G1 X85.766 Y116.503 E.02217
G1 X122.644 Y116.503 E1.15628
G1 X137.132 Y102.015 E.64242
G1 X147.663 Y102.015 E.33019
G1 X149.257 Y103.609 E.07068
G1 E-3.5 F3600
;WIPE_START
G1 F7200
G1 X147.663 Y102.015 E-1.07077
G1 X146.759 Y102.015 E-.42923
;WIPE_END
G1 X137.115 Y102.512 F9000
G1 E5 F2400
G1 F1200
G1 X147.68 Y102.512 E.33126
G1 X148.099 Y102.931 E.01858
G1 X136.696 Y102.931 E.35753
G1 X136.277 Y103.35 E.01858
G1 X148.517 Y103.35 E.38378
G1 X148.936 Y103.769 E.01858
G1 X135.858 Y103.769 E.41005
G1 X135.439 Y104.188 E.01858
G1 X148.958 Y104.188 E.42388
G1 X148.958 Y104.607 E.01314
G1 X135.02 Y104.607 E.43702
G1 X134.601 Y105.026 E.01858
G1 X148.958 Y105.026 E.45015
G1 X148.958 Y105.445 E.01314
G1 X134.182 Y105.445 E.46329
G1 X133.763 Y105.864 E.01858
G1 X148.958 Y105.864 E.47643
G1 X148.958 Y106.282 E.01311
G1 X133.344 Y106.282 E.48957
G1 X132.925 Y106.701 E.01858
G1 X148.958 Y106.701 E.5027
G1 X148.958 Y107.12 E.01314
G1 X132.506 Y107.12 E.51584
G1 X132.087 Y107.539 E.01858
G1 X148.958 Y107.539 E.52898
G1 X148.958 Y107.958 E.01314
G1 X131.668 Y107.958 E.54212
G1 X131.249 Y108.377 E.01858
G1 X148.958 Y108.377 E.55525
G1 X148.958 Y108.771 E.01235
G1 X130.83 Y108.796 E.56839
G1 X130.411 Y109.215 E.01858
G1 X148.513 Y109.215 E.56758
G1 X148.094 Y109.634 E.01858
G1 X129.992 Y109.634 E.56758
G1 X129.573 Y110.053 E.01858
G1 X147.675 Y110.053 E.56758
G1 X147.64 Y110.472 E.01318
G1 X129.154 Y110.472 E.57962
G1 X128.735 Y110.891 E.01858
G1 X147.64 Y110.891 E.59275
G1 X147.64 Y111.31 E.01314
G1 X128.316 Y111.31 E.60589
G1 X127.897 Y111.729 E.01858
G1 X147.64 Y111.729 E.61903
G1 X147.64 Y112.148 E.01314
G1 X127.478 Y112.148 E.63217
G1 X127.059 Y112.567 E.01858
G1 X147.64 Y112.567 E.6453
G1 X147.64 Y112.722 E.00486
G1 X147.377 Y112.986 E.01168
G1 X126.64 Y112.986 E.65019
G1 X126.221 Y113.405 E.01858
G1 X146.958 Y113.405 E.65019
G1 X146.539 Y113.824 E.01858
G1 X125.802 Y113.824 E.65019
G1 X125.383 Y114.243 E.01858
G1 X146.323 Y114.243 E.65656
G1 X146.323 Y114.662 E.01314
G1 X124.964 Y114.662 E.6697
G1 X124.545 Y115.081 E.01858
G1 X146.323 Y115.081 E.68283
G1 X146.323 Y115.357 E.00865
G1 X146.18 Y115.5 E.00634
G1 X124.126 Y115.5 E.69149
G1 X123.707 Y115.919 E.01858
G1 X145.761 Y115.919 E.69149
G1 X145.342 Y116.338 E.01858
G1 X123.289 Y116.338 E.69146
G1 X123.003 Y116.624 E.01268
G1 E-3.5 F3600
;WIPE_START
G1 F7200
G1 X123.289 Y116.338 E-.19212
G1 X126.042 Y116.338 E-1.30788
;WIPE_END
G1 X85.906 Y116.842 F9000
G1 E5 F2400
G1 F1200
G1 X122.784 Y116.842 E1.15628
G1 X122.87 Y116.757 E.00379
G1 X144.923 Y116.757 E.69146
G1 X144.504 Y117.176 E.01858
G1 X85.572 Y117.176 E1.84777
G1 E-3.5 F3600
;WIPE_START
G1 F7200
G1 X88.73 Y117.176 E-1.5
;WIPE_END
G1 X139.62 Y123.377 F9000
G1 E5 F2400
G1 F1200
G1 X138.302 Y123.377 E.04132
G1 X138.219 Y123.461 E.0037
G1 X83.654 Y123.461 E1.71085
G1 X83.654 Y123.042 E.01314
G1 X139.955 Y123.042 E1.76528
G1 X140.374 Y122.623 E.01858
G1 X83.654 Y122.623 E1.77842
G1 X83.654 Y122.204 E.01314
G1 X140.793 Y122.204 E1.79155
G1 X141.212 Y121.785 E.01858
G1 X83.654 Y121.785 E1.80469
G1 X83.654 Y121.366 E.01314
G1 X141.631 Y121.366 E1.81783
G1 X142.05 Y120.947 E.01858
G1 X83.654 Y120.947 E1.83097
G1 X83.654 Y120.528 E.01314
G1 X142.372 Y120.528 E1.84106
G1 X142.372 Y120.109 E.01314
G1 X83.654 Y120.109 E1.84106
G1 X83.654 Y119.69 E.01314
G1 X142.372 Y119.69 E1.84106
G1 X142.409 Y119.271 E.01319
G1 X83.654 Y119.271 E1.84222
G1 X83.654 Y118.852 E.01314
G1 X142.828 Y118.852 E1.85536
G1 X143.247 Y118.433 E.01858
G1 X83.654 Y118.433 E1.8685
G1 X83.654 Y118.014 E.01314
G1 X143.666 Y118.014 E1.88163
G1 X144.085 Y117.595 E.01858
G1 X83.654 Y117.595 E1.89477
G1 X83.654 Y117.342 E.00793
G1 X84.13 Y117.342 E.01492
G1 E-3.5 F3600
;WIPE_START
G1 F7200
G1 X83.654 Y117.342 E-.2261
G1 X83.654 Y117.595 E-.12018
G1 X86.083 Y117.595 E-1.15372
;WIPE_END
G1 X134.449 Y127.231 F9000
G1 E5 F2400
G1 F1200
G1 X84.492 Y127.231 E1.56637
G1 X84.471 Y126.812 E.01315
G1 X134.868 Y126.812 E1.58016
G1 X135.287 Y126.393 E.01858
G1 X84.471 Y126.393 E1.5933
G1 X84.471 Y125.974 E.01314
G1 X135.706 Y125.974 E1.60644
G1 X136.125 Y125.555 E.01858
G1 X84.471 Y125.555 E1.61957
G1 X83.654 Y125.512 E.02565
G1 X83.654 Y125.136 E.01179
G1 X136.543 Y125.136 E1.6583
G1 X136.962 Y124.717 E.01858
G1 X83.654 Y124.717 E1.67143
G1 X83.654 Y124.299 E.01311
G1 X137.381 Y124.299 E1.68457
G1 X137.8 Y123.88 E.01858
G1 X83.654 Y123.88 E1.69771
G1 X83.654 Y123.649 E.00724
G1 E-3.5 F3600
;WIPE_START
G1 F7200
G1 X83.654 Y123.88 E-.10973
G1 X86.581 Y123.88 E-1.39027
;WIPE_END
G1 X131.875 Y128.488 F9000
G1 E5 F2400
G1 F1200
G1 X85.749 Y128.488 E1.44625
G1 X85.33 Y128.069 E.01858
G1 X132.294 Y128.069 E1.47252
G1 X132.713 Y127.65 E.01858
G1 X84.911 Y127.65 E1.4988
G1 X84.625 Y127.365 E.01266
M106 S255
;LAYER_CHANGE
;Z:0.5
;HEIGHT:0.3
;BEFORE_LAYER_CHANGE
G92 E0
;0.5


G1 E-3.5 F3600
;WIPE_START
G1 F7200
G1 X84.911 Y127.65 E-.19179
G1 X87.665 Y127.65 E-1.30821
;WIPE_END
G1 Z.5 F9000
;AFTER_LAYER_CHANGE
;0.5
G1 Z.5
G1 X125.84 Y118.134
G1 E5 F2400
;TYPE:Support material interface
;WIDTH:0.36
G1 X125.275 Y118.134 E.02083
G1 X125.275 Y118.857 E.02666
G1 X125.998 Y118.134 E.0377
G1 X126.371 Y118.134 E.01375
G1 X126.371 Y118.134 F9000
G1 X127.157 Y116.817
G1 F2400
G1 X126.592 Y116.817 E.02083
G1 X126.592 Y117.54 E.02666
G1 X127.315 Y116.817 E.0377
G1 X127.688 Y116.817 E.01375
G1 X127.688 Y116.817 F9000
G1 X128.474 Y115.5
G1 F2400
G1 X127.909 Y115.5 E.02083
G1 X127.909 Y116.223 E.02666
G1 X128.632 Y115.5 E.0377
G1 X129.005 Y115.5 E.01375
G1 X129.791 Y114.183 F9000
G1 F2400
G1 X129.226 Y114.183 E.02083
G1 X129.226 Y114.906 E.02666
G1 X129.949 Y114.183 E.0377
G1 X130.322 Y114.183 E.01375
G1 X130.322 Y114.183 F9000
G1 X131.108 Y112.866
G1 F2400
G1 X130.543 Y112.866 E.02083
G1 X130.543 Y113.589 E.02666
G1 X131.267 Y112.866 E.03773
G1 X131.639 Y112.866 E.01372
G1 X131.639 Y112.866 F9000
G1 X132.425 Y111.549
G1 F2400
G1 X131.86 Y111.549 E.02083
G1 X131.86 Y112.272 E.02666
G1 X132.584 Y111.549 E.03773
G1 X132.956 Y111.549 E.01372
G1 X132.956 Y111.549 F9000
G1 X133.742 Y110.232
G1 F2400
G1 X133.178 Y110.232 E.0208
G1 X133.178 Y110.955 E.02666
G1 X133.901 Y110.232 E.0377
G1 X134.273 Y110.232 E.01372
G1 X134.273 Y110.232 F9000
G1 X135.059 Y108.915
G1 F2400
G1 X134.495 Y108.915 E.0208
G1 X134.495 Y109.638 E.02666
G1 X135.218 Y108.915 E.0377
G1 X135.59 Y108.915 E.01372
G1 X135.59 Y108.915 F9000
G1 X136.376 Y107.598
G1 F2400
G1 X135.812 Y107.598 E.0208
G1 X135.812 Y108.321 E.02666
G1 X136.535 Y107.598 E.0377
G1 X136.907 Y107.598 E.01372
G1 X136.907 Y107.598 F9000
G1 X137.693 Y106.28
G1 F2400
G1 X137.129 Y106.28 E.0208
G1 X137.129 Y107.004 E.02669
G1 X137.852 Y106.28 E.03773
G1 X138.224 Y106.28 E.01372
G1 X138.224 Y106.28 F9000
G1 X139.011 Y104.963
G1 F2400
G1 X138.446 Y104.963 E.02083
G1 X138.446 Y105.687 E.02669
G1 X139.169 Y104.963 E.03773
G1 X139.742 Y104.963 E.02113
G1 E-3.5 F3600
;WIPE_START
G1 F7200
G1 X139.169 Y104.963 E-.27217
G1 X138.446 Y105.687 E-.48601
G1 X138.446 Y104.963 E-.3439
G1 X139.011 Y104.963 E-.26837
;WIPE_END
G1 E-.12955 F3600
G1 X143.714 Y113.739 F9000
G1 E5 F2400
G1 X143.714 Y114.183 E.01637
G1 X143.271 Y114.183 E.01633
G1 X143.271 Y114.183 F9000
G1 X142.74 Y114.183
G1 F2400
G1 X143.112 Y114.183 E.01372
G1 X143.714 Y113.581 E.03139
G1 X143.714 Y112.85 E.02695
G1 X131.844 Y124.72 E.61895
G1 X132.576 Y124.72 E.02699
G1 X133.178 Y124.117 E.03142
G1 X133.178 Y123.745 E.01372
G1 X133.178 Y123.745 F9000
G1 X133.52 Y123.402
G1 F2400
G1 X133.893 Y123.402 E.01375
G1 X134.495 Y122.8 E.03139
G1 X134.495 Y122.428 E.01372
G1 X134.495 Y122.428 F9000
G1 X134.837 Y122.085
G1 F2400
G1 X135.21 Y122.085 E.01375
G1 X135.812 Y121.483 E.03139
G1 X135.812 Y121.111 E.01372
G1 X135.812 Y121.111 F9000
G1 X136.154 Y120.768
G1 F2400
G1 X136.527 Y120.768 E.01375
G1 X139.763 Y117.532 E.16874
G1 X139.763 Y117.16 E.01372
G1 X139.763 Y117.16 F9000
G1 X140.105 Y116.817
G1 F2400
G1 X140.478 Y116.817 E.01375
G1 X141.08 Y116.215 E.03139
G1 X141.08 Y115.842 E.01375
G1 X141.08 Y115.842 F9000
G1 X141.423 Y115.5
G1 F2400
G1 X141.795 Y115.5 E.01372
G1 X142.397 Y114.898 E.03139
G1 X142.397 Y114.525 E.01375
G1 X142.397 Y114.525 F9000
G1 X142.397 Y115.056
G1 F2400
G1 X142.397 Y115.5 E.01637
G1 X141.954 Y115.5 E.01633
G1 X141.954 Y115.5 F9000
G1 X141.08 Y116.374
G1 F2400
G1 X141.08 Y116.817 E.01633
G1 X140.637 Y116.817 E.01633
G1 E-3.5 F3600
;WIPE_START
G1 F7200
G1 X141.08 Y116.817 E-.21043
G1 X141.08 Y116.374 E-.21042
;WIPE_END
G1 E-1.07915 F3600
G1 X139.763 Y119.153 F9000
G1 E5 F2400
G1 X139.763 Y119.451 E.01099
G1 X139.465 Y119.451 E.01099
G1 X139.465 Y119.451 F9000
G1 X138.734 Y119.451
G1 F2400
G1 X139.306 Y119.451 E.02109
G1 X139.763 Y118.995 E.0238
G1 X139.763 Y118.263 E.02699
G1 X138.575 Y119.451 E.06195
G1 X138.446 Y119.451 E.00476
G1 X138.446 Y119.58 E.00476
G1 X137.258 Y120.768 E.06195
G1 X137.989 Y120.768 E.02695
G1 X138.446 Y120.312 E.0238
G1 X138.446 Y120.768 E.01681
G1 X138.148 Y120.768 E.01099
G1 E-3.5 F3600
;WIPE_START
G1 F7200
G1 X138.446 Y120.768 E-.14155
G1 X138.446 Y120.312 E-.2166
G1 X137.989 Y120.768 E-.30665
G1 X137.258 Y120.768 E-.34722
G1 X137.984 Y120.042 E-.48798
;WIPE_END
G1 X135.812 Y121.642 F9000
G1 E5 F2400
G1 X135.812 Y122.085 E.01633
G1 X135.368 Y122.085 E.01637
G1 X135.368 Y122.085 F9000
G1 X134.495 Y122.959
G1 F2400
G1 X134.495 Y123.402 E.01633
G1 X134.051 Y123.402 E.01637
G1 X134.051 Y123.402 F9000
G1 X133.178 Y124.276
G1 F2400
G1 X133.178 Y124.72 E.01637
G1 X132.734 Y124.72 E.01637
G1 E-3.5 F3600
;WIPE_START
G1 F7200
G1 X133.178 Y124.72 E-.2109
G1 X133.178 Y124.276 E-.2109
;WIPE_END
G1 E-1.0782 F3600
G1 X130.543 Y126.02 F9000
G1 E5 F2400
G1 X129.796 Y126.037 E.02755
G1 X130.543 Y125.289 E.03898
G1 X130.543 Y124.917 E.01372
G1 X130.543 Y124.917 F9000
G1 X130.74 Y124.72
G1 F2400
G1 X131.113 Y124.72 E.01375
G1 X143.714 Y112.118 E.65709
G1 X143.714 Y111.746 E.01372
G1 X143.714 Y111.746 F9000
G1 X145.031 Y111.532
G1 F2400
G1 X144.284 Y111.549 E.02755
G1 X145.031 Y110.801 E.03898
G1 X145.031 Y110.07 E.02695
G1 X129.065 Y126.037 E.83256
G1 X128.333 Y126.037 E.02699
G1 X145.031 Y109.339 E.8707
G1 X145.031 Y108.607 E.02699
G1 X127.602 Y126.037 E.90884
G1 X126.871 Y126.037 E.02695
G1 X145.031 Y107.876 E.94696
G1 X145.031 Y107.598 E.01025
G1 X145.31 Y107.598 E.01029
G1 X146.348 Y106.559 E.05415
G1 X146.348 Y107.29 E.02695
G1 X146.041 Y107.598 E.01603
G1 X145.469 Y107.598 E.02109
G1 X145.469 Y107.598 F9000
G1 X146.348 Y106.401
G1 F2400
G1 X146.348 Y105.828 E.02113
G1 X126.14 Y126.037 E1.05375
G1 X125.408 Y126.037 E.02699
G1 X146.348 Y105.097 E1.09189
G1 X146.348 Y104.963 E.00494
G1 X145.75 Y104.963 E.02205
G1 X124.677 Y126.037 E1.09885
G1 X123.946 Y126.037 E.02695
G1 X145.019 Y104.963 E1.09885
G1 X144.288 Y104.963 E.02695
G1 X123.215 Y126.037 E1.09885
G1 X122.483 Y126.037 E.02699
G1 X143.557 Y104.963 E1.09888
G1 X142.825 Y104.963 E.02699
G1 X121.752 Y126.037 E1.09885
G1 X121.021 Y126.037 E.02695
G1 X142.094 Y104.963 E1.09885
G1 X141.363 Y104.963 E.02695
G1 X120.29 Y126.037 E1.09885
G1 X119.558 Y126.037 E.02699
G1 X140.632 Y104.963 E1.09888
G1 X139.9 Y104.963 E.02699
G1 X118.827 Y126.037 E1.09885
G1 X118.096 Y126.037 E.02695
G1 X124.681 Y119.451 E.34339
G1 X123.95 Y119.451 E.02695
G1 X117.364 Y126.037 E.34342
G1 X116.633 Y126.037 E.02695
G1 X123.219 Y119.451 E.34342
G1 X122.487 Y119.451 E.02699
G1 X115.902 Y126.037 E.34339
G1 X115.171 Y126.037 E.02695
G1 X121.756 Y119.451 E.34339
G1 X121.025 Y119.451 E.02695
G1 X114.439 Y126.037 E.34342
G1 X113.708 Y126.037 E.02695
G1 X120.294 Y119.451 E.34342
G1 X119.562 Y119.451 E.02699
G1 X112.977 Y126.037 E.34339
G1 X112.246 Y126.037 E.02695
G1 X118.831 Y119.451 E.34339
G1 X118.1 Y119.451 E.02695
G1 X111.514 Y126.037 E.34342
G1 X110.783 Y126.037 E.02695
G1 X117.369 Y119.451 E.34342
G1 X116.637 Y119.451 E.02699
G1 X110.052 Y126.037 E.34339
G1 X109.321 Y126.037 E.02695
G1 X115.906 Y119.451 E.34339
G1 X115.175 Y119.451 E.02695
G1 X108.589 Y126.037 E.34342
G1 X107.858 Y126.037 E.02695
G1 X114.444 Y119.451 E.34342
G1 X113.712 Y119.451 E.02699
G1 X107.127 Y126.037 E.34339
G1 X106.396 Y126.037 E.02695
G1 X112.981 Y119.451 E.34339
G1 X112.25 Y119.451 E.02695
G1 X105.664 Y126.037 E.34342
G1 X104.933 Y126.037 E.02695
G1 X111.518 Y119.451 E.34339
G1 X110.787 Y119.451 E.02695
G1 X104.202 Y126.037 E.34339
G1 X103.471 Y126.037 E.02695
G1 X110.056 Y119.451 E.34339
G1 X109.325 Y119.451 E.02695
G1 X102.739 Y126.037 E.34342
G1 X102.008 Y126.037 E.02695
G1 X108.593 Y119.451 E.34339
G1 X107.862 Y119.451 E.02695
G1 X101.277 Y126.037 E.34339
G1 X100.545 Y126.037 E.02699
G1 X107.131 Y119.451 E.34342
G1 X106.4 Y119.451 E.02695
G1 X99.814 Y126.037 E.34342
G1 X99.083 Y126.037 E.02695
G1 X105.668 Y119.451 E.34339
G1 X104.937 Y119.451 E.02695
G1 X98.352 Y126.037 E.34339
G1 X97.62 Y126.037 E.02699
G1 X104.206 Y119.451 E.34342
G1 X103.475 Y119.451 E.02695
G1 X96.889 Y126.037 E.34342
G1 X96.158 Y126.037 E.02695
G1 X102.743 Y119.451 E.34339
G1 X102.012 Y119.451 E.02695
