; generated by PrusaSlicer 2.7.4+win64 on 2024-05-11 at 20:14:31 UTC

; 

; external perimeters extrusion width = 0.42mm
; perimeters extrusion width = 0.44mm
; infill extrusion width = 0.44mm
; solid infill extrusion width = 0.44mm
; top infill extrusion width = 0.40mm
; support material extrusion width = 0.36mm
; first layer extrusion width = 0.42mm

M201 X500 Y500 Z100 E5000 ; sets maximum accelerations, mm/sec^2
M203 X500 Y500 Z10 E60 ; sets maximum feedrates, mm / sec
M204 S500 T1000 ; sets acceleration (S) and retract acceleration (R), mm/sec^2
M205 X8.00 Y8.00 Z0.40 E5.00 ; sets the jerk limits, mm/sec
M205 S0 T0 ; sets the minimum extruding and travel feed rate, mm/sec

; printing object tyl.stl id:4 copy 0
; stop printing object tyl.stl id:4 copy 0

;TYPE:Custom
G90 ; use absolute coordinates
M83 ; extruder relative mode
M104 S150 ; set temporary nozzle temp to prevent oozing during homing
M140 S60 ; set final bed temp
G4 S30 ; allow partial nozzle warmup
G28 ; home all axis
G29
G1 Z50 F240
G1 X2.0 Y10 F3000
M104 S210 ; set final nozzle temp
M190 S60 ; wait for bed temp to stabilize
M109 S210 ; wait for nozzle temp to stabilize
G1 Z0.28 F240
G92 E0
G1 X2.0 Y140 E10 F1500 ; prime the nozzle
G1 X2.3 Y140 F5000
G92 E0
G1 X2.3 Y10 E10 F1200 ; prime the nozzle
G92 E0
G21 ; set units to millimeters
G90 ; use absolute coordinates
M83 ; use relative distances for extrusion
; Filament gcode
M107
;LAYER_CHANGE
;Z:0.2
;HEIGHT:0.2
G1 E-5 F3600
G1 Z.2 F9000
G1 X84.04 Y84.04
G1 Z.2
G1 E5 F2400
M204 S500
;TYPE:Skirt/Brim
;WIDTH:0.42
G1 F1200
G1 X87.534 Y80.546 E.15493
G1 X89.616 Y79.571 E.07208
G1 X104.104 Y78.254 E.45613
G1 X110.989 Y78.24 E.21587
G1 X112.573 Y78.634 E.05118
G1 X113.377 Y79.229 E.03136
G1 X143.988 Y109.839 E1.35732
G1 X144.828 Y111.237 E.05114
G1 X144.977 Y112.227 E.03139
G1 X144.963 Y119.112 E.21587
G1 X143.646 Y133.6 E.45613
G1 X142.67 Y135.682 E.0721
G1 X137.085 Y141.268 E.24767
G1 X135.687 Y142.109 E.05115
G1 X134.697 Y142.257 E.03139
G1 X130.307 Y142.228 E.13765
G1 X126.539 Y141.728 E.11918
G1 X124.595 Y140.768 E.06798
G1 X82.448 Y98.621 E1.86887
G1 X81.489 Y96.678 E.06794
G1 X80.959 Y92.465 E.13314
G1 X80.959 Y88.52 E.12369
G1 X81.353 Y86.936 E.05118
G1 X81.948 Y86.132 E.03136
G1 X83.998 Y84.082 E.0909
G1 E-3.5 F3600
;WIPE_START
G1 F7200
G1 X84.04 Y84.04 E-.02821
G1 X86.231 Y81.849 E-1.47179
;WIPE_END
; printing object tyl.stl id:4 copy 0
G1 X140.344 Y110.971 F9000
G1 E5 F2400
;TYPE:Support material
G1 F1200
G1 X141.6 Y112.227 E.05569
G1 X141.6 Y118.807 E.20631
G1 X137.645 Y122.761 E.17535
G1 X140.282 Y125.398 E.11693
G1 X140.282 Y133.294 E.24757
G1 X134.697 Y138.88 E.24767
G1 X130.751 Y138.88 E.12372
G1 X130.251 Y138.38 E.02217
G1 X126.983 Y138.38 E.10247
G1 X126.983 Y137.063 E.04129
G1 X125.666 Y137.063 E.04129
G1 X125.666 Y135.746 E.04129
G1 X124.349 Y135.746 E.04129
G1 X124.349 Y134.429 E.04129
G1 X123.032 Y134.429 E.04129
G1 X123.032 Y133.112 E.04129
G1 X121.715 Y133.112 E.04129
G1 X121.715 Y131.795 E.04129
G1 X120.398 Y131.795 E.04129
G1 X120.398 Y130.478 E.04129
G1 X119.08 Y130.478 E.04132
G1 X119.08 Y129.161 E.04129
G1 X117.763 Y129.161 E.04129
G1 X117.763 Y127.843 E.04132
G1 X116.446 Y127.843 E.04129
G1 X116.446 Y126.526 E.04129
G1 X115.129 Y126.526 E.04129
G1 X115.129 Y125.209 E.04129
G1 X113.812 Y125.209 E.04129
G1 X113.812 Y123.892 E.04129
G1 X112.495 Y123.892 E.04129
G1 X112.495 Y122.575 E.04129
G1 X111.178 Y122.575 E.04129
G1 X111.178 Y121.258 E.04129
G1 X109.861 Y121.258 E.04129
G1 X109.861 Y119.941 E.04129
G1 X108.544 Y119.941 E.04129
G1 X108.544 Y118.624 E.04129
G1 X107.227 Y118.624 E.04129
G1 X107.227 Y117.307 E.04129
G1 X105.91 Y117.307 E.04129
G1 X105.91 Y115.99 E.04129
G1 X104.593 Y115.99 E.04129
G1 X104.593 Y114.673 E.04129
G1 X103.275 Y114.673 E.04132
G1 X103.275 Y113.356 E.04129
G1 X101.958 Y113.356 E.04129
G1 X101.958 Y112.038 E.04132
G1 X100.641 Y112.038 E.04129
G1 X100.641 Y110.721 E.04129
G1 X99.324 Y110.721 E.04129
G1 X99.324 Y109.404 E.04129
G1 X98.007 Y109.404 E.04129
G1 X98.007 Y108.087 E.04129
G1 X96.69 Y108.087 E.04129
G1 X96.69 Y106.77 E.04129
G1 X95.373 Y106.77 E.04129
G1 X95.373 Y105.453 E.04129
G1 X94.056 Y105.453 E.04129
G1 X94.056 Y104.136 E.04129
G1 X92.739 Y104.136 E.04129
G1 X92.739 Y102.819 E.04129
G1 X91.422 Y102.819 E.04129
G1 X91.422 Y101.502 E.04129
G1 X90.105 Y101.502 E.04129
G1 X90.105 Y100.185 E.04129
G1 X88.788 Y100.185 E.04129
G1 X88.788 Y98.868 E.04129
G1 X87.471 Y98.868 E.04129
G1 X87.471 Y97.551 E.04129
G1 X86.153 Y97.551 E.04132
G1 X86.153 Y96.234 E.04129
G1 X84.836 Y96.234 E.04129
G1 X84.836 Y92.965 E.1025
G1 X84.336 Y92.465 E.02217
G1 X84.336 Y88.52 E.12369
G1 X89.922 Y82.934 E.24769
G1 X97.819 Y82.934 E.2476
G1 X100.456 Y85.571 E.11693
G1 X104.41 Y81.617 E.17533
G1 X110.989 Y81.617 E.20628
G1 X140.304 Y110.931 E1.29985
G1 E-3.5 F3600
;WIPE_START
G1 F7200
G1 X138.071 Y108.698 E-1.5
;WIPE_END
G1 X104.509 Y81.998 F9000
G1 E5 F2400
G1 F1200
G1 X110.89 Y81.998 E.20007
G1 X111.309 Y82.417 E.01858
G1 X104.09 Y82.417 E.22635
G1 X103.671 Y82.836 E.01858
G1 X111.728 Y82.836 E.25262
G1 X112.147 Y83.255 E.01858
G1 X103.252 Y83.255 E.2789
G1 X102.833 Y83.673 E.01856
G1 X112.566 Y83.673 E.30517
G1 X112.985 Y84.092 E.01858
G1 X102.414 Y84.092 E.33145
G1 X101.995 Y84.511 E.01858
G1 X113.404 Y84.511 E.35772
G1 X113.823 Y84.93 E.01858
G1 X101.576 Y84.93 E.384
G1 X101.157 Y85.349 E.01858
G1 X114.242 Y85.349 E.41027
G1 X114.661 Y85.768 E.01858
G1 X100.738 Y85.768 E.43655
G1 E-3.5 F3600
;WIPE_START
G1 F7200
G1 X103.896 Y85.768 E-1.5
;WIPE_END
G1 X97.945 Y83.54 F9000
G1 E5 F2400
G1 F1200
G1 X97.678 Y83.273 E.01184
G1 X90.063 Y83.273 E.23876
G1 X89.662 Y83.673 E.01776
G1 X98.078 Y83.673 E.26388
G1 X98.497 Y84.092 E.01858
G1 X89.243 Y84.092 E.29015
G1 X88.824 Y84.511 E.01858
G1 X98.916 Y84.511 E.31643
G1 X99.335 Y84.93 E.01858
G1 X88.405 Y84.93 E.3427
G1 X87.986 Y85.349 E.01858
G1 X99.754 Y85.349 E.36898
G1 X100.173 Y85.768 E.01858
G1 X87.567 Y85.768 E.39525
G1 X87.148 Y86.187 E.01858
G1 X115.08 Y86.187 E.87579
G1 X115.499 Y86.606 E.01858
G1 X86.73 Y86.606 E.90203
G1 X86.311 Y87.025 E.01858
G1 X115.918 Y87.025 E.92831
G1 X116.337 Y87.444 E.01858
G1 X85.892 Y87.444 E.95458
G1 X85.473 Y87.863 E.01858
G1 X116.756 Y87.863 E.98086
G1 X117.175 Y88.282 E.01858
G1 X85.054 Y88.282 E1.00713
G1 X84.676 Y88.701 E.01769
G1 X117.594 Y88.701 E1.03212
G1 X118.013 Y89.12 E.01858
G1 X84.676 Y89.12 E1.04526
G1 X84.676 Y89.539 E.01314
G1 X118.432 Y89.539 E1.0584
G1 X118.851 Y89.958 E.01858
G1 X84.676 Y89.958 E1.07153
G1 X84.676 Y90.377 E.01314
G1 X119.27 Y90.377 E1.08467
G1 X119.689 Y90.796 E.01858
G1 X84.676 Y90.796 E1.09781
G1 X84.676 Y91.215 E.01314
G1 X120.108 Y91.215 E1.11095
G1 X120.527 Y91.634 E.01858
G1 X84.676 Y91.634 E1.12408
G1 X84.676 Y92.053 E.01314
G1 X120.946 Y92.053 E1.13722
G1 X121.365 Y92.472 E.01858
G1 X84.823 Y92.472 E1.14575
G1 X85.176 Y92.891 E.01718
G1 X121.784 Y92.891 E1.14782
G1 X122.203 Y93.31 E.01858
G1 X85.176 Y93.31 E1.16096
G1 X85.176 Y93.729 E.01314
G1 X122.622 Y93.729 E1.17409
G1 X123.041 Y94.148 E.01858
G1 X85.176 Y94.148 E1.18723
G1 X85.176 Y94.567 E.01314
G1 X123.46 Y94.567 E1.20037
G1 X123.879 Y94.986 E.01858
G1 X85.176 Y94.986 E1.21351
G1 X85.176 Y95.405 E.01314
G1 X124.298 Y95.405 E1.22664
G1 X124.716 Y95.824 E.01856
G1 X85.176 Y95.824 E1.23975
G1 X85.176 Y95.824 F9000
G1 X86.493 Y96.243
G1 F1200
G1 X125.135 Y96.243 E1.21159
G1 X125.554 Y96.662 E.01858
G1 X86.493 Y96.662 E1.22473
G1 X86.493 Y97.081 E.01314
G1 X125.973 Y97.081 E1.23787
G1 X126.392 Y97.5 E.01858
G1 X87.81 Y97.5 E1.20971
G1 X87.81 Y97.919 E.01314
G1 X126.811 Y97.919 E1.22285
G1 X127.23 Y98.338 E.01858
G1 X87.81 Y98.338 E1.23599
G1 X87.81 Y98.528 E.00596
G1 X88.217 Y98.528 E.01276
G1 X88.217 Y98.528 F9000
G1 X89.127 Y98.757
G1 F1200
G1 X127.649 Y98.757 E1.20783
G1 X128.068 Y99.176 E.01858
G1 X89.127 Y99.176 E1.22097
G1 X89.127 Y99.595 E.01314
G1 X128.487 Y99.595 E1.23411
G1 X128.906 Y100.014 E.01858
G1 X90.444 Y100.014 E1.20595
G1 X90.444 Y100.433 E.01314
G1 X129.325 Y100.433 E1.21909
G1 X129.744 Y100.852 E.01858
G1 X90.444 Y100.852 E1.23222
G1 X90.444 Y101.162 E.00972
G1 X91.761 Y101.162 E.04129
G1 X91.761 Y101.271 E.00342
G1 X130.163 Y101.271 E1.20407
G1 X130.582 Y101.69 E.01858
G1 X91.761 Y101.69 E1.21721
G1 X91.761 Y102.108 E.01311
G1 X131.001 Y102.108 E1.23034
G1 X131.42 Y102.527 E.01858
G1 X91.761 Y102.48 E1.24348
G1 X91.761 Y102.48 F9000
G1 X93.078 Y102.716
G1 F1200
G1 X93.078 Y102.946 E.00721
G1 X131.839 Y102.946 E1.21532
G1 X132.258 Y103.365 E.01858
G1 X93.078 Y103.365 E1.22846
G1 X93.078 Y103.784 E.01314
G1 X132.677 Y103.784 E1.2416
G1 X133.096 Y104.203 E.01858
G1 X94.395 Y104.203 E1.21344
G1 X94.395 Y104.622 E.01314
G1 X133.515 Y104.622 E1.22658
G1 X133.934 Y105.041 E.01858
G1 X94.395 Y105.041 E1.23972
G1 X94.395 Y105.041 F9000
G1 X95.712 Y105.46
G1 F1200
G1 X134.353 Y105.46 E1.21156
G1 X134.772 Y105.879 E.01858
G1 X95.712 Y105.879 E1.2247
G1 X95.712 Y106.298 E.01314
G1 X135.191 Y106.298 E1.23784
G1 X135.61 Y106.717 E.01858
G1 X97.029 Y106.717 E1.20968
G1 X97.029 Y107.136 E.01314
G1 X136.029 Y107.136 E1.22282
G1 X136.448 Y107.555 E.01858
G1 X97.029 Y107.555 E1.23596
G1 X97.029 Y107.748 E.00605
G1 X97.438 Y107.748 E.01282
G1 X97.438 Y107.748 F9000
G1 X98.347 Y107.974
G1 F1200
G1 X136.867 Y107.974 E1.20777
G1 X137.286 Y108.393 E.01858
G1 X98.347 Y108.393 E1.22091
G1 X98.347 Y108.812 E.01314
G1 X137.705 Y108.812 E1.23404
G1 X138.124 Y109.231 E.01858
G1 X99.664 Y109.231 E1.20589
G1 X99.664 Y109.65 E.01314
G1 X138.543 Y109.65 E1.21902
G1 X138.962 Y110.069 E.01858
G1 X99.664 Y110.069 E1.23216
G1 X99.664 Y110.382 E.00981
G1 X100.981 Y110.382 E.04129
G1 X100.981 Y110.488 E.00332
G1 X139.381 Y110.488 E1.20401
G1 X139.8 Y110.907 E.01858
G1 X100.981 Y110.907 E1.21714
G1 X100.981 Y111.326 E.01314
G1 X140.219 Y111.326 E1.23028
G1 X140.638 Y111.745 E.01858
G1 X100.981 Y111.699 E1.24342
G1 X100.981 Y111.699 F9000
G1 X102.298 Y111.933
G1 F1200
G1 X102.298 Y112.164 E.00724
G1 X141.057 Y112.164 E1.21526
G1 X141.26 Y112.368 E.00902
G1 X141.26 Y112.583 E.00674
G1 X102.298 Y112.583 E1.22163
G1 X102.298 Y113.002 E.01314
G1 X141.26 Y113.002 E1.22163
G1 X141.26 Y113.421 E.01314
G1 X103.615 Y113.421 E1.18033
G1 X103.615 Y113.84 E.01314
G1 X141.26 Y113.84 E1.18033
G1 X141.26 Y114.259 E.01314
G1 X103.615 Y114.259 E1.18033
G1 X103.615 Y114.259 F9000
G1 X104.932 Y114.678
G1 F1200
G1 X141.26 Y114.678 E1.13904
G1 X141.26 Y115.097 E.01314
G1 X104.932 Y115.097 E1.13904
G1 X104.932 Y115.516 E.01314
G1 X141.26 Y115.516 E1.13904
G1 X141.26 Y115.935 E.01314
G1 X106.249 Y115.935 E1.09775
G1 X106.249 Y116.354 E.01314
G1 X141.26 Y116.354 E1.09775
G1 X141.26 Y116.773 E.01314
G1 X106.249 Y116.773 E1.09775
G1 X106.249 Y116.967 E.00608
G1 X106.66 Y116.967 E.01289
G1 X106.66 Y116.967 F9000
G1 X107.566 Y117.192
G1 F1200
G1 X141.26 Y117.192 E1.05645
G1 X141.26 Y117.611 E.01314
G1 X107.566 Y117.611 E1.05645
G1 X107.566 Y118.03 E.01314
G1 X141.26 Y118.03 E1.05645
G1 X141.26 Y118.449 E.01314
G1 X108.883 Y118.449 E1.01516
G1 X108.883 Y118.868 E.01314
G1 X141.059 Y118.868 E1.00886
G1 X140.64 Y119.287 E.01858
G1 X108.883 Y119.287 E.99572
G1 X108.883 Y119.602 E.00988
G1 X110.2 Y119.602 E.04129
G1 X110.2 Y119.706 E.00326
G1 X140.221 Y119.706 E.94129
G1 X139.802 Y120.124 E.01856
G1 X110.2 Y120.124 E.92815
G1 X110.2 Y120.543 E.01314
G1 X139.383 Y120.543 E.91501
G1 X138.964 Y120.962 E.01858
G1 X110.2 Y120.919 E.90188
G1 X110.2 Y120.919 F9000
G1 X111.517 Y121.151
G1 F1200
G1 X111.517 Y121.381 E.00721
G1 X138.545 Y121.381 E.84744
G1 X138.126 Y121.8 E.01858
G1 X111.517 Y121.8 E.83431
G1 X111.517 Y122.219 E.01314
G1 X137.707 Y122.219 E.82117
G1 X137.288 Y122.638 E.01858
G1 X112.834 Y122.638 E.76674
G1 X112.834 Y123.057 E.01314
G1 X137.462 Y123.057 E.77219
G1 X137.881 Y123.476 E.01858
G1 X112.834 Y123.476 E.78533
G1 X112.834 Y123.476 F9000
G1 X114.151 Y123.895
G1 F1200
G1 X138.3 Y123.895 E.75717
G1 X138.719 Y124.314 E.01858
G1 X114.151 Y124.314 E.77031
G1 X114.151 Y124.733 E.01314
G1 X139.138 Y124.733 E.78345
G1 X139.557 Y125.152 E.01858
G1 X115.469 Y125.152 E.75526
G1 X115.469 Y125.571 E.01314
G1 X139.943 Y125.571 E.76737
G1 X139.943 Y125.99 E.01314
G1 X115.469 Y125.99 E.76737
G1 X115.469 Y126.187 E.00618
G1 X115.881 Y126.187 E.01292
G1 X116.786 Y126.409 F9000
G1 F1200
G1 X139.943 Y126.409 E.72607
G1 X139.943 Y126.828 E.01314
G1 X116.786 Y126.828 E.72607
G1 X116.786 Y127.247 E.01314
G1 X139.943 Y127.247 E.72607
G1 X139.943 Y127.666 E.01314
G1 X118.103 Y127.666 E.68478
G1 X118.103 Y128.085 E.01314
G1 X139.943 Y128.085 E.68478
G1 X139.943 Y128.504 E.01314
G1 X118.103 Y128.504 E.68478
G1 X118.103 Y128.821 E.00994
G1 X119.42 Y128.821 E.04129
G1 X119.42 Y128.923 E.0032
G1 X139.943 Y128.923 E.64348
G1 X139.943 Y129.342 E.01314
G1 X119.42 Y129.342 E.64348
G1 X119.42 Y129.761 E.01314
G1 X139.943 Y129.761 E.64348
G1 X139.943 Y130.18 E.01314
G1 X119.42 Y130.138 E.64349
G1 X119.42 Y130.138 F9000
G1 X120.737 Y130.368
G1 F1200
G1 X120.737 Y130.599 E.00724
G1 X139.943 Y130.599 E.60219
G1 X139.943 Y131.018 E.01314
G1 X120.737 Y131.018 E.60219
G1 X120.737 Y131.437 E.01314
G1 X139.943 Y131.437 E.60219
G1 X139.943 Y131.856 E.01314
G1 X122.054 Y131.856 E.5609
G1 X122.054 Y132.275 E.01314
G1 X139.943 Y132.275 E.5609
G1 X139.943 Y132.694 E.01314
G1 X122.054 Y132.694 E.5609
G1 X122.054 Y132.694 F9000
G1 X123.371 Y133.113
G1 F1200
G1 X139.943 Y133.113 E.5196
G1 X139.565 Y133.532 E.01769
G1 X123.371 Y133.532 E.50775
G1 X123.371 Y133.951 E.01314
G1 X139.146 Y133.951 E.49461
G1 X138.727 Y134.37 E.01858
G1 X124.688 Y134.37 E.44018
G1 X124.688 Y134.789 E.01314
G1 X138.308 Y134.789 E.42705
G1 X137.889 Y135.208 E.01858
G1 X124.688 Y135.208 E.41391
G1 X124.688 Y135.407 E.00624
G1 X125.102 Y135.407 E.01298
G1 E-3.5 F3600
;WIPE_START
G1 F7200
G1 X124.688 Y135.407 E-.19665
G1 X124.688 Y135.208 E-.09453
G1 X127.233 Y135.208 E-1.20882
;WIPE_END
G1 X130.625 Y138.274 F9000
G1 E5 F2400
G1 F1200
G1 X130.892 Y138.541 E.01184
G1 X134.556 Y138.541 E.11488
G1 X134.957 Y138.141 E.01776
G1 X130.492 Y138.141 E.14
G1 X130.392 Y138.041 E.00443
G1 X127.322 Y138.041 E.09626
G1 X127.322 Y137.722 E.01
G1 X135.376 Y137.722 E.25253
G1 X135.794 Y137.303 E.01856
G1 X127.322 Y137.303 E.26563
G1 X127.322 Y136.884 E.01314
G1 X136.213 Y136.884 E.27877
G1 X136.632 Y136.465 E.01858
G1 X126.005 Y136.465 E.3332
G1 X126.005 Y136.046 E.01314
G1 X137.051 Y136.046 E.34634
G1 X137.47 Y135.627 E.01858
G1 X126.005 Y135.627 E.35948
M106 S255
;LAYER_CHANGE
;Z:0.5
;HEIGHT:0.3
;BEFORE_LAYER_CHANGE
G92 E0
;0.5


G1 E-3.5 F3600
;WIPE_START
G1 F7200
G1 X129.163 Y135.627 E-1.5
;WIPE_END
G1 Z.5 F9000
;AFTER_LAYER_CHANGE
;0.5
G1 Z.5
G1 X107.048 Y84.565
G1 E5 F2400
;TYPE:Support material interface
;WIDTH:0.36
G1 X106.476 Y84.565 E.02109
G1 X105.724 Y85.317 E.03921
G1 X105.744 Y84.565 E.02774
G1 X105.744 Y84.565 F9000
G1 X105.531 Y85.882
G1 F2400
G1 X105.158 Y85.882 E.01375
G1 X104.407 Y86.634 E.03919
G1 X104.427 Y85.882 E.02774
G1 X104.427 Y85.882 F9000
G1 X104.214 Y87.2
G1 F2400
G1 X103.841 Y87.2 E.01375
G1 X103.09 Y87.951 E.03916
G1 X103.11 Y87.2 E.0277
G1 X103.11 Y87.2 F9000
G1 X102.897 Y88.517
G1 F2400
G1 X102.524 Y88.517 E.01375
G1 X101.773 Y89.268 E.03916
G1 X101.793 Y88.517 E.0277
G1 E-3.5 F3600
;WIPE_START
G1 F7200
G1 X101.773 Y89.268 E-.35685
G1 X102.524 Y88.517 E-.50449
G1 X102.897 Y88.517 E-.17718
;WIPE_END
G1 E-.46148 F3600
G1 X92.569 Y85.882 F9000
G1 E5 F2400
G1 X91.996 Y85.882 E.02113
G1 X91.236 Y86.642 E.03963
G1 X91.265 Y85.882 E.02804
G1 X91.265 Y85.882 F9000
G1 X91.051 Y87.2
G1 F2400
G1 X90.679 Y87.2 E.01372
G1 X89.919 Y87.959 E.0396
G1 X89.947 Y87.2 E.028
G1 X89.947 Y87.2 F9000
G1 X89.734 Y88.517
G1 F2400
G1 X89.362 Y88.517 E.01372
G1 X88.602 Y89.276 E.0396
G1 X88.63 Y88.517 E.028
G1 X88.63 Y88.517 F9000
G1 X87.285 Y89.862
G1 F2400
G1 X88.045 Y89.834 E.02804
G1 X87.285 Y90.593 E.0396
G1 X87.285 Y91.151 E.02057
G1 X87.459 Y91.151 E.00642
G1 X92.727 Y85.882 E.27472
G1 X93.458 Y85.882 E.02695
G1 X88.19 Y91.151 E.27472
G1 X88.602 Y91.151 E.01519
G1 X88.602 Y91.47 E.01176
G1 X94.19 Y85.882 E.29138
G1 X94.921 Y85.882 E.02695
G1 X88.602 Y92.201 E.3295
